; generated by PrusaSlicer 2.6.0+linux-x64-GTK2 on 2023-09-02 at 21:50:30 UTC


;
;
; 

; external perimeters extrusion width = 0.68mm
; perimeters extrusion width = 0.68mm
; infill extrusion width = 0.68mm
; solid infill extrusion width = 0.68mm
; top infill extrusion width = 0.60mm
; support material extrusion width = 0.55mm
; first layer extrusion width = 0.65mm

M73 P0 R38
M73 Q0 S38
M201 X1000 Y1000 Z200 E5000 ; sets maximum accelerations, mm/sec^2
M203 X200 Y200 Z12 E120 ; sets maximum feedrates, mm / sec
M204 S1250 T1250 ; sets acceleration (S) and retract acceleration (R), mm/sec^2
M205 X8.00 Y8.00 Z0.40 E4.50 ; sets the jerk limits, mm/sec
M205 S0 T0 ; sets the minimum extruding and travel feed rate, mm/sec
;TYPE:Custom
M862.3 P "MK3S" ; printer model check
M862.1 P0.6 ; nozzle diameter check
M115 U3.12.2 ; tell printer latest fw version
G90 ; use absolute coordinates
M83 ; extruder relative mode
M104 S215 ; set extruder temp
M140 S60 ; set bed temp
M190 S60 ; wait for bed temp
M109 S215 ; wait for extruder temp
G28 W ; home all without mesh bed level
G80 ; mesh bed leveling

G1 Z0.2 F720
G1 Y-3 F1000 ; go outside print area
G92 E0
G1 X60 E9 F1000 ; intro line
G1 X100 E12.5 F1000 ; intro line

G92 E0
M221 S95
G21 ; set units to millimeters
G90 ; use absolute coordinates
M83 ; use relative distances for extrusion
M900 K0.04 ; Filament gcode LA 1.5
M900 K18 ; Filament gcode LA 1.0
M107
;LAYER_CHANGE
;Z:0.2
;HEIGHT:0.2
;BEFORE_LAYER_CHANGE
G92 E0.0
;0.2


G1 E-.8 F2100
G1 Z.4 F720
;AFTER_LAYER_CHANGE
;0.2
G1 X107.557 Y63.922 F10800
G1 Z.2 F720
G1 E.8 F1500
M204 S800
;TYPE:Skirt/Brim
;WIDTH:0.65
G1 F1200
G1 X108.616 Y62.96 E.07222
G1 X109.772 Y62.69 E.05992
G1 X140.228 Y62.69 E1.53738
G1 X141.603 Y63.082 E.07217
G1 X142.565 Y64.141 E.07222
G1 X142.835 Y65.297 E.05992
G1 X142.835 Y103.145 E1.91052
G1 X137.886 Y142.895 E2.02203
G1 X137.143 Y144.415 E.0854
G1 X134.679 Y146.879 E.1759
G1 X132.835 Y147.643 E.10076
G1 X117.165 Y147.643 E.791
G1 X115.321 Y146.879 E.10076
G1 X112.857 Y144.415 E.1759
G1 X112.114 Y142.895 E.0854
G1 X107.185 Y103.469 E2.00567
G1 X107.165 Y65.297 E1.92688
G1 X107.533 Y64.008 E.06767
M204 S1000
; printing object cap_v4-Body id:0 copy 0
;WIPE_START
G1 F8640
G1 X108.616 Y62.96 E-.34798
G1 X109.772 Y62.69 E-.27411
G1 X110.542 Y62.69 E-.17791
;WIPE_END
G1 Z.6 F720
G1 X122.175 Y69.423 F10800
G1 Z.2 F720
G1 E.8 F1500
M204 S800
;TYPE:Support material interface
;WIDTH:0.55
G1 F1200
G1 X122.536 Y69.423 E.01522
G1 X122.536 Y68.204 E.0514
G1 X121.943 Y68.204 E.025
G1 X121.943 Y69.423 E.0514
G1 X121.227 Y69.423 E.03019
G1 X121.179 Y69.472 E.00289
G1 X121.179 Y68.204 E.05346
G1 X120.415 Y68.204 E.03221
G1 X120.415 Y100.238 E1.35068
G1 X120.072 Y100.238 E.01446
G1 X120.072 Y99.59 E.02732
M204 S1000
;WIPE_START
G1 F8640
G1 X120.072 Y100.238 E-.14962
G1 X120.415 Y100.238 E-.0792
G1 X120.415 Y97.764 E-.57118
;WIPE_END
G1 Z.6 F720
G1 X140.228 Y103.145 F10800
G1 Z.2 F720
G1 E.8 F1500
M204 S800
;TYPE:Support material
;WIDTH:0.65
G1 F1200
G1 X135.299 Y103.145 E.24881
G1 X135.299 Y142.572 E1.99023
G1 X132.835 Y142.572 E.12438
M73 P1 R38
M73 Q1 S38
G1 X132.835 Y145.036 E.12438
G1 X117.165 Y145.036 E.791
G1 X117.165 Y142.572 E.12438
G1 X114.701 Y142.572 E.12438
G1 X114.701 Y103.145 E1.99023
G1 X109.772 Y103.145 E.24881
G1 X109.772 Y65.297 E1.91052
G1 X140.228 Y65.297 E1.53738
G1 X140.228 Y103.054 E1.90593
M204 S1000
;WIPE_START
G1 F8640
G1 X140.228 Y99.589 E-.8
;WIPE_END
G1 Z.6 F720
G1 X126.907 Y69.331 F10800
G1 Z.2 F720
G1 E.8 F1500
M204 S800
G1 F1200
G1 X126.907 Y67.647 E.08501
G1 X130.486 Y67.647 E.18066
G1 X130.486 Y100.795 E1.67327
G1 X127.748 Y100.795 E.13821
G1 X128.258 Y100.292 E.03616
G1 X128.669 Y70.111 E1.52364
G1 X128.54 Y69.981 E.00924
M73 P1 R37
G1 X127.981 Y69.981 E.02822
G1 X127.608 Y69.981 E.01883
G1 X127.486 Y74.563 E.23138
G1 X127.486 Y97.754 E1.17066
G1 X127.166 Y98.069 E.02267
G1 X126.624 Y98.069 E.02736
G1 X126.55 Y99.606 E.07768
G1 X126.442 Y100.626 E.05178
G1 X125.947 Y101.07 E.03357
G1 X124.07 Y101.07 E.09475
G1 X123.569 Y100.601 E.03464
G1 X123.401 Y98.069 E.12809
G1 X122.827 Y98.069 E.02897
G1 X122.514 Y97.762 E.02213
G1 X122.514 Y74.574 E1.1705
G1 X122.392 Y69.981 E.23193
G1 X121.46 Y69.981 E.04705
G1 X121.331 Y70.111 E.00924
G1 X121.736 Y100.293 E1.52369
G1 X122.247 Y100.795 E.03616
G1 X119.514 Y100.795 E.13796
G1 X119.514 Y67.647 E1.67327
G1 X123.093 Y67.647 E.18066
G1 X123.093 Y69.331 E.08501
G1 X126.816 Y69.331 E.18793
M204 S1000
;WIPE_START
G1 F8640
G1 X123.351 Y69.331 E-.8
;WIPE_END
G1 Z.6 F720
G1 X139.165 Y102.872 F10800
G1 Z.2 F720
G1 E.8 F1500
M204 S800
G1 F1200
G1 X139.165 Y65.843 E1.86918
G1 X138.491 Y65.843 E.03402
M73 P2 R37
M73 Q2 S38
G1 X138.491 Y102.599 E1.8554
G1 X137.816 Y102.599 E.03407
G1 X137.816 Y65.843 E1.8554
G1 X137.142 Y65.843 E.03402
G1 X137.142 Y102.599 E1.8554
G1 X136.467 Y102.599 E.03407
G1 X136.467 Y65.843 E1.8554
G1 X135.793 Y65.843 E.03402
G1 X135.793 Y102.599 E1.8554
G1 X135.118 Y102.599 E.03407
M73 Q2 S37
G1 X135.118 Y65.843 E1.8554
G1 X134.443 Y65.843 E.03407
G1 X134.443 Y142.025 E3.84558
G1 X133.769 Y142.025 E.03402
G1 X133.769 Y65.843 E3.84558
G1 X133.094 Y65.843 E.03407
G1 X133.094 Y142.025 E3.84558
G1 X132.42 Y142.025 E.03402
M73 P3 R37
G1 X132.42 Y65.843 E3.84558
G1 X131.745 Y65.843 E.03407
M73 Q3 S37
G1 X131.745 Y144.489 E3.96996
G1 X131.071 Y144.489 E.03402
G1 X131.071 Y65.843 E3.96996
G1 X130.396 Y65.843 E.03407
G1 X130.396 Y67.101 E.0635
G1 X129.722 Y67.101 E.03402
G1 X129.722 Y65.843 E.0635
G1 X129.047 Y65.843 E.03407
G1 X129.047 Y67.101 E.0635
G1 X128.373 Y67.101 E.03402
G1 X128.373 Y65.843 E.0635
G1 X127.698 Y65.843 E.03407
G1 X127.698 Y67.101 E.0635
G1 X127.024 Y67.101 E.03402
G1 X127.024 Y65.843 E.0635
G1 X126.349 Y65.843 E.03407
G1 X126.349 Y68.785 E.14851
G1 X125.675 Y68.785 E.03402
G1 X125.675 Y65.843 E.14851
G1 X125 Y65.843 E.03407
G1 X125 Y68.785 E.14851
G1 X124.675 Y68.785 E.01641
G1 X124.325 Y68.785 E.01767
G1 X124.325 Y65.843 E.14851
G1 X123.651 Y65.843 E.03402
G1 X123.651 Y68.785 E.14851
G1 X123.639 Y67.101 E.08501
G1 X122.976 Y67.101 E.03347
G1 X122.976 Y65.843 E.0635
G1 X122.302 Y65.843 E.03402
G1 X122.302 Y67.101 E.0635
G1 X121.627 Y67.101 E.03407
G1 X121.627 Y65.843 E.0635
G1 X120.953 Y65.843 E.03402
G1 X120.953 Y67.101 E.0635
G1 X120.278 Y67.101 E.03407
G1 X120.278 Y65.843 E.0635
G1 X119.604 Y65.843 E.03402
G1 X119.604 Y67.101 E.0635
G1 X118.968 Y67.101 E.0321
G1 X118.968 Y101.342 E1.72845
G1 X119.604 Y101.342 E.0321
G1 X119.604 Y144.489 E2.17801
G1 X120.278 Y144.489 E.03402
G1 X120.278 Y101.342 E2.17801
G1 X120.953 Y101.342 E.03407
G1 X120.953 Y144.489 E2.17801
G1 X121.627 Y144.489 E.03402
G1 X121.627 Y101.342 E2.17801
G1 X122.302 Y101.342 E.03407
M73 P4 R37
M73 Q4 S37
G1 X122.302 Y144.489 E2.17801
G1 X122.976 Y144.489 E.03402
M73 P4 R36
G1 X122.976 Y99.922 E2.24969
G1 X122.889 Y98.615 E.06612
G1 X122.603 Y98.615 E.01444
G1 X122.302 Y98.319 E.02131
G1 X122.302 Y100.466 E.10838
M204 S1000
G1 X130.396 Y144.763 F10800
M204 S800
G1 F1200
G1 X130.396 Y101.342 E2.19184
G1 X129.722 Y101.342 E.03402
G1 X129.722 Y144.489 E2.17801
G1 X129.047 Y144.489 E.03407
G1 X129.047 Y101.342 E2.17801
G1 X128.373 Y101.342 E.03402
G1 X128.373 Y144.489 E2.17801
G1 X127.698 Y144.489 E.03407
G1 X127.698 Y101.069 E2.19179
M204 S1000
G1 X127.698 Y100.461 F10800
M204 S800
G1 F1200
G1 X127.698 Y98.312 E.10848
G1 X127.39 Y98.615 E.02181
G1 X127.145 Y98.615 E.01237
G1 X127.095 Y99.646 E.0521
G1 X127.024 Y100.336 E.03501
G1 X127.024 Y144.489 E2.22879
G1 X126.349 Y144.489 E.03407
G1 X126.349 Y101.443 E2.17291
G1 X126.156 Y101.616 E.01308
G1 X125.675 Y101.616 E.02428
G1 X125.675 Y144.489 E2.16418
G1 X125 Y144.489 E.03407
M73 P5 R36
M73 Q5 S36
G1 X125 Y101.616 E2.16418
G1 X124.325 Y101.616 E.03407
G1 X124.325 Y144.489 E2.16418
G1 X123.651 Y144.489 E.03402
G1 X123.651 Y101.051 E2.1927
M204 S1000
G1 X118.929 Y144.763 F10800
M204 S800
G1 F1200
G1 X118.929 Y65.843 E3.98379
G1 X118.255 Y65.843 E.03402
G1 X118.255 Y144.489 E3.96996
G1 X117.711 Y144.489 E.02746
G1 X117.711 Y142.025 E.12438
G1 X117.58 Y142.025 E.00661
G1 X117.58 Y65.843 E3.84558
G1 X116.906 Y65.843 E.03402
G1 X116.906 Y142.025 E3.84558
G1 X116.231 Y142.025 E.03407
M73 P6 R36
M73 Q6 S36
G1 X116.231 Y65.843 E3.84558
G1 X115.557 Y65.843 E.03402
G1 X115.557 Y142.025 E3.84558
G1 X115.247 Y142.025 E.01565
G1 X115.247 Y102.599 E1.99018
G1 X114.882 Y102.599 E.01842
G1 X114.882 Y65.843 E1.8554
G1 X114.207 Y65.843 E.03407
G1 X114.207 Y102.599 E1.8554
G1 X113.533 Y102.599 E.03402
G1 X113.533 Y65.843 E1.8554
G1 X112.858 Y65.843 E.03407
M73 P6 R35
G1 X112.858 Y102.599 E1.8554
G1 X112.184 Y102.599 E.03402
G1 X112.184 Y65.843 E1.8554
G1 X111.509 Y65.843 E.03407
G1 X111.509 Y102.599 E1.8554
G1 X110.835 Y102.599 E.03402
G1 X110.835 Y65.57 E1.86918
M204 S1000
;WIPE_START
G1 F8640
M73 P7 R35
M73 Q7 S36
G1 X110.835 Y69.035 E-.8
;WIPE_END
G1 Z.6 F720
G1 X127.825 Y69.423 F10800
G1 Z.2 F720
G1 E.8 F1500
M204 S800
;TYPE:Support material interface
;WIDTH:0.55
G1 F1200
G1 X127.464 Y69.423 E.01522
G1 X127.464 Y68.204 E.0514
G1 X128.057 Y68.204 E.025
G1 X128.057 Y69.423 E.0514
G1 X128.773 Y69.423 E.03019
G1 X128.821 Y69.472 E.00289
G1 X128.821 Y68.204 E.05346
G1 X129.585 Y68.204 E.03221
G1 X129.585 Y100.238 E1.35068
G1 X128.821 Y100.238 E.03221
G1 X129.214 Y71.047 E1.23092
M204 S1000
;WIPE_START
G1 F8640
G1 X129.167 Y74.511 E-.8
;WIPE_END
G1 Z.6 F720
G1 X125.006 Y85.473 F10800
G1 Z.2 F720
G1 E.8 F1500
M204 S800
;TYPE:Perimeter
;WIDTH:0.978538
G1 F1200
G1 X124.979 Y85.407 E.00555
;WIDTH:0.928756
G1 X124.952 Y85.342 E.00518
;WIDTH:0.878974
G1 X124.924 Y85.276 E.00498
;WIDTH:0.829191
G1 X124.897 Y85.21 E.00466
;WIDTH:0.779409
G1 X124.87 Y85.145 E.00431
;WIDTH:0.729627
G1 X124.842 Y85.079 E.00409
;WIDTH:0.679844
G1 X124.815 Y85.013 E.00378
;WIDTH:0.630062
G1 X124.787 Y84.948 E.00346
;WIDTH:0.58028
G1 X124.76 Y84.882 E.00319
;WIDTH:0.572873
G1 X124.733 Y83.596 E.05668
;WIDTH:0.615248
G1 X124.705 Y82.31 E.06121
;WIDTH:0.662792
G1 X124.683 Y80.574 E.08949
;WIDTH:0.710335
G1 X124.66 Y78.839 E.09629
;WIDTH:0.757879
G1 X124.638 Y77.104 E.10315
;WIDTH:0.805422
G1 X124.615 Y75.369 E.11001
;WIDTH:0.852966
G1 X124.593 Y73.633 E.11694
;WIDTH:0.900509
G1 X124.558 Y71.458 E.15512
G1 X125.44 Y71.458 E.06289
G1 X125.428 Y71.899 E.03146
G1 X125.402 Y73.634 E.12373
;WIDTH:0.852966
G1 X125.377 Y75.369 E.11687
;WIDTH:0.805422
G1 X125.352 Y77.104 E.11001
;WIDTH:0.757879
G1 X125.327 Y78.839 E.10315
;WIDTH:0.710335
G1 X125.302 Y80.573 E.09624
;WIDTH:0.662792
G1 X125.277 Y82.308 E.08944
;WIDTH:0.615248
G1 X125.262 Y83.594 E.0612
;WIDTH:0.572873
G1 X125.247 Y84.88 E.05667
;WIDTH:0.58028
G1 X125.221 Y84.946 E.00317
;WIDTH:0.630062
G1 X125.194 Y85.012 E.00348
;WIDTH:0.679844
G1 X125.167 Y85.077 E.00373
;WIDTH:0.729627
G1 X125.14 Y85.143 E.00407
;WIDTH:0.779409
G1 X125.113 Y85.209 E.00437
;WIDTH:0.829191
G1 X125.087 Y85.275 E.00464
;WIDTH:0.878974
G1 X125.06 Y85.341 E.00496
;WIDTH:0.928756
G1 X125.04 Y85.389 E.00383
M204 S1000
;WIPE_START
G1 F8640
G1 X124.979 Y85.407 E-.01469
G1 X124.952 Y85.342 E-.01625
G1 X124.924 Y85.276 E-.01655
G1 X124.897 Y85.21 E-.01647
G1 X124.87 Y85.145 E-.01625
G1 X124.842 Y85.079 E-.01655
G1 X124.815 Y85.013 E-.01647
G1 X124.787 Y84.948 E-.01634
G1 X124.76 Y84.882 E-.01647
G1 X124.733 Y83.596 E-.29701
G1 X124.705 Y82.31 E-.29701
G1 X124.702 Y82.05 E-.05994
;WIPE_END
G1 Z.6 F720
G1 X124.832 Y99.679 F10800
G1 Z.2 F720
G1 E.8 F1500
M204 S800
;TYPE:External perimeter
;WIDTH:0.651762
G1 F1200
G1 X124.728 Y99.252 E.02225
G1 X124.717 Y98.989 E.01333
;WIDTH:0.656244
G1 X124.694 Y97.133 E.09466
;WIDTH:0.656351
G1 X124.694 Y97.12 E.00066
;WIDTH:0.676849
G1 X124.677 Y96.146 E.05135
;WIDTH:0.70662
G1 X124.658 Y95.592 E.03059
;WIDTH:0.73639
G1 X124.639 Y95.03 E.03242
;WIDTH:0.785162
G1 X124.62 Y93.876 E.07123
;WIDTH:0.833934
G1 X124.601 Y92.721 E.07598
;WIDTH:0.882705
G1 X124.581 Y91.567 E.08059
G1 X124.554 Y91.448 E.00852
;WIDTH:0.836164
G1 X124.526 Y91.329 E.00806
;WIDTH:0.789623
G1 X124.498 Y91.21 E.00759
;WIDTH:0.743082
G1 X124.47 Y91.091 E.00712
;WIDTH:0.696541
G1 X124.442 Y90.972 E.00664
;WIDTH:0.649999
G1 X124.116 Y82.329 E.4366
G1 X123.806 Y70.725 E.58597
G1 X126.193 Y70.725 E.12049
G1 X126.16 Y71.919 E.06029
G1 X125.758 Y86.174 E.71986
G1 X125.565 Y90.977 E.24265
;WIDTH:0.696541
G1 X125.536 Y91.096 E.00666
;WIDTH:0.743082
G1 X125.507 Y91.215 E.00713
;WIDTH:0.789623
G1 X125.478 Y91.333 E.00754
;WIDTH:0.836164
G1 X125.449 Y91.452 E.00808
;WIDTH:0.882705
G1 X125.42 Y91.571 E.00855
G1 X125.391 Y92.725 E.08061
;WIDTH:0.833934
G1 X125.361 Y93.879 E.07593
;WIDTH:0.785162
G1 X125.332 Y95.034 E.07131
;WIDTH:0.73639
G1 X125.321 Y95.588 E.03195
;WIDTH:0.70662
G1 X125.31 Y96.142 E.03058
;WIDTH:0.676849
G1 X125.311 Y96.446 E.01602
;WIDTH:0.665375
G1 X125.307 Y97.12 E.03489
;WIDTH:0.656351
G1 X125.326 Y98.982 E.09498
;WIDTH:0.651762
G1 X125.169 Y99.677 E.03607
G1 X124.922 Y99.678 E.0125
M204 S1000
G1 X124.852 Y99.24 F10800
;WIPE_START
G1 F8640
G1 X124.728 Y99.252 E-.10808
G1 X124.717 Y98.989 E-.06078
G1 X124.694 Y97.133 E-.42859
G1 X124.694 Y97.12 E-.003
G1 X124.679 Y96.256 E-.19955
;WIPE_END
G1 Z.6 F720
G1 X125.004 Y90.951 F10800
G1 Z.2 F720
G1 E.8 F1500
M204 S800
;TYPE:Perimeter
;WIDTH:0.570736
G1 F1200
G1 X125.004 Y90.812 E.0061
;WIDTH:0.616144
G1 X125.005 Y90.229 E.02779
;WIDTH:0.661552
G1 X125.006 Y89.646 E.02999
;WIDTH:0.70696
G1 X125.006 Y89.063 E.03219
;WIDTH:0.752367
G1 X125.007 Y88.48 E.03439
;WIDTH:0.797775
G1 X125.008 Y87.898 E.03653
;WIDTH:0.843183
G1 X125.008 Y87.315 E.03879
;WIDTH:0.888591
G1 X125.009 Y86.732 E.041
;WIDTH:0.933998
G1 X125.01 Y86.149 E.0432
;WIDTH:0.978538
G1 X125.006 Y85.473 E.05259
M204 S1000
; stop printing object cap_v4-Body id:0 copy 0
M106 S84.15
;LAYER_CHANGE
;Z:0.35
;HEIGHT:0.15
;BEFORE_LAYER_CHANGE
G92 E0.0
;0.35


;WIPE_START
G1 F8640
G1 X125.01 Y86.149 E-.15609
G1 X125.009 Y86.732 E-.13462
G1 X125.008 Y87.315 E-.13462
G1 X125.008 Y87.898 E-.13462
G1 X125.007 Y88.48 E-.13439
G1 X125.006 Y88.938 E-.10566
;WIPE_END
G1 Z.6 F720
;AFTER_LAYER_CHANGE
;0.35
M104 S210 ; set temperature
; printing object cap_v4-Body id:0 copy 0
G1 X120.072 Y99.59 F10800
G1 Z.35 F720
G1 E.8 F1500
;TYPE:Support material interface
;WIDTH:0.55
G1 F2400
G1 X120.072 Y100.238 E.02093
G1 X120.415 Y100.238 E.01108
G1 X120.415 Y68.204 E1.03444
G1 X121.179 Y68.204 E.02467
G1 X121.179 Y69.472 E.04095
G1 X121.227 Y69.423 E.00222
G1 X121.943 Y69.423 E.02312
G1 X121.943 Y68.204 E.03936
G1 X122.536 Y68.204 E.01915
G1 X122.536 Y69.423 E.03936
M73 Q7 S35
G1 X122.175 Y69.423 E.01166
;WIPE_START
G1 F8640
G1 X122.536 Y69.423 E-.08336
G1 X122.536 Y68.204 E-.28147
G1 X121.943 Y68.204 E-.13693
G1 X121.943 Y69.423 E-.28147
G1 X121.87 Y69.423 E-.01677
;WIPE_END
G1 Z.75 F720
G1 X123 Y68.436 F10800
G1 Z.35 F720
G1 E.8 F1500
;TYPE:Support material
G1 F3000
G1 X123 Y69.423 E.03187
G1 X127 Y69.423 E.12917
G1 X127 Y68.204 E.03936
G1 X123 Y68.204 E.12917
;WIPE_START
G1 F8640
G1 X126.465 Y68.204 E-.8
;WIPE_END
G1 Z.75 F720
G1 X129.214 Y71.047 F10800
G1 Z.35 F720
G1 E.8 F1500
;TYPE:Support material interface
G1 F2400
G1 X128.821 Y100.238 E.94272
G1 X129.585 Y100.238 E.02467
G1 X129.585 Y68.204 E1.03444
G1 X128.821 Y68.204 E.02467
G1 X128.821 Y69.472 E.04095
G1 X128.773 Y69.423 E.00222
G1 X128.057 Y69.423 E.02312
G1 X128.057 Y68.204 E.03936
G1 X127.464 Y68.204 E.01915
G1 X127.464 Y69.423 E.03936
G1 X127.825 Y69.423 E.01166
;WIPE_START
G1 F8640
G1 X127.464 Y69.423 E-.08336
G1 X127.464 Y68.204 E-.28147
G1 X128.057 Y68.204 E-.13693
G1 X128.057 Y69.423 E-.28147
G1 X128.13 Y69.423 E-.01677
;WIPE_END
G1 Z.75 F720
G1 X130.392 Y68.204 F10800
G1 Z.35 F720
G1 E.8 F1500
;TYPE:Support material
G1 F3000
G1 X137.321 Y68.204 E.22375
G1 X137.321 Y70.668 E.07957
G1 X130.392 Y70.668 E.22375
G1 X130.392 Y73.132 E.07957
G1 X137.321 Y73.132 E.22375
G1 X137.321 Y75.597 E.0796
G1 X130.392 Y75.597 E.22375
G1 X130.392 Y78.061 E.07957
G1 X137.321 Y78.061 E.22375
G1 X137.321 Y80.525 E.07957
G1 X130.392 Y80.525 E.22375
G1 X130.392 Y82.989 E.07957
G1 X137.321 Y82.989 E.22375
G1 X137.321 Y85.453 E.07957
G1 X130.392 Y85.453 E.22375
G1 X130.392 Y87.917 E.07957
