; generated by PrusaSlicer 2.6.0+linux-x64-GTK2 on 2023-08-09 at 17:04:22 UTC


;
;
; 

; external perimeters extrusion width = 0.68mm
; perimeters extrusion width = 0.68mm
; infill extrusion width = 0.68mm
; solid infill extrusion width = 0.68mm
; top infill extrusion width = 0.60mm
; support material extrusion width = 0.55mm
; first layer extrusion width = 0.65mm

M73 P0 R20
M73 Q0 S21
M201 X1000 Y1000 Z200 E5000 ; sets maximum accelerations, mm/sec^2
M203 X200 Y200 Z12 E120 ; sets maximum feedrates, mm / sec
M204 S1250 T1250 ; sets acceleration (S) and retract acceleration (R), mm/sec^2
M205 X8.00 Y8.00 Z0.40 E4.50 ; sets the jerk limits, mm/sec
M205 S0 T0 ; sets the minimum extruding and travel feed rate, mm/sec
;TYPE:Custom
M862.3 P "MK3S" ; printer model check
M862.1 P0.6 ; nozzle diameter check
M115 U3.12.2 ; tell printer latest fw version
G90 ; use absolute coordinates
M83 ; extruder relative mode
M104 S215 ; set extruder temp
M140 S60 ; set bed temp
M190 S60 ; wait for bed temp
M109 S215 ; wait for extruder temp
G28 W ; home all without mesh bed level
G80 ; mesh bed leveling

G1 Z0.2 F720
G1 Y-3 F1000 ; go outside print area
G92 E0
G1 X60 E9 F1000 ; intro line
G1 X100 E12.5 F1000 ; intro line

G92 E0
M221 S95
G21 ; set units to millimeters
G90 ; use absolute coordinates
M83 ; use relative distances for extrusion
M900 K0.04 ; Filament gcode LA 1.5
M900 K18 ; Filament gcode LA 1.0
M107
;LAYER_CHANGE
;Z:0.2
;HEIGHT:0.2
;BEFORE_LAYER_CHANGE
G92 E0.0
;0.2


M73 Q0 S20
G1 E-.8 F2100
G1 Z.4 F720
;AFTER_LAYER_CHANGE
;0.2
G1 X104.906 Y91.022 F10800
G1 Z.2 F720
G1 E.8 F1500
M204 S800
;TYPE:Skirt/Brim
;WIDTH:0.65
G1 F1200
G1 X105.872 Y89.967 E.07221
G1 X106.82 Y89.615 E.05105
G1 X122.416 Y87.078 E.79762
G1 X125.005 Y86.893 E.13102
G1 X127.579 Y87.078 E.13027
G1 X143.18 Y89.615 E.79787
G1 X144.475 Y90.223 E.07222
G1 X145.094 Y91.022 E.05102
G1 X147.568 Y95.972 E.27934
G1 X147.844 Y97.138 E.06048
G1 X147.844 Y112.862 E.79373
G1 X147.568 Y114.028 E.06048
G1 X145.094 Y118.978 E.27934
G1 X144.128 Y120.033 E.07221
G1 X143.18 Y120.385 E.05105
G1 X127.61 Y122.918 E.79629
G1 X126.24 Y123.064 E.06955
G1 X124.393 Y123.097 E.09325
G1 X122.371 Y122.915 E.10248
G1 X106.82 Y120.385 E.79532
G1 X105.525 Y119.777 E.07222
M73 P1 R20
M73 Q1 S20
G1 X104.906 Y118.978 E.05102
G1 X102.432 Y114.028 E.27934
G1 X102.156 Y112.862 E.06048
G1 X102.156 Y97.138 E.79373
G1 X102.432 Y95.972 E.06048
G1 X104.866 Y91.103 E.27478
M204 S1000
; printing object cap_v2-Body id:0 copy 0
;WIPE_START
G1 F8640
G1 X105.872 Y89.967 E-.35037
G1 X106.82 Y89.615 E-.2335
G1 X107.744 Y89.465 E-.21613
;WIPE_END
G1 Z.6 F720
G1 X114.762 Y92.227 F10800
G1 Z.2 F720
G1 E.8 F1500
M204 S800
;TYPE:Support material
G1 F1200
G1 X114.292 Y92.618 E.03086
G1 X113.444 Y93.406 E.05843
G1 X113.033 Y93.831 E.02984
G1 X112.286 Y94.688 E.05739
G1 X111.769 Y95.354 E.04256
G1 X111.725 Y95.858 E.02554
G1 X112.378 Y97.116 E.07155
G1 X112.794 Y97.369 E.02458
G1 X115.63 Y97.369 E.14316
G1 X115.63 Y98.112 E.03751
G1 X115.95 Y98.564 E.02796
G1 X117.081 Y98.961 E.06051
G1 X117.587 Y98.835 E.02632
G1 X118.356 Y98.026 E.05634
G1 X118.666 Y97.744 E.02115
G1 X119.32 Y97.222 E.04224
G1 X120.017 Y96.758 E.04227
G1 X120.38 Y96.549 E.02114
G1 X121.132 Y96.18 E.04228
G1 X121.913 Y95.877 E.04229
G1 X122.312 Y95.751 E.02112
G1 X123.126 Y95.553 E.04229
G1 X123.954 Y95.426 E.04229
G1 X124.371 Y95.39 E.02113
G1 X125.208 Y95.371 E.04226
G1 X126.044 Y95.426 E.04229
G1 X126.872 Y95.553 E.04229
G1 X127.281 Y95.643 E.02114
G1 X128.085 Y95.877 E.04227
G1 X128.866 Y96.18 E.04229
G1 X129.245 Y96.356 E.02109
G1 X129.617 Y96.549 E.02115
G1 X130.334 Y96.982 E.04228
G1 X131.01 Y97.476 E.04226
G1 X131.641 Y98.026 E.04225
G1 X132.411 Y98.835 E.05638
G1 X132.916 Y98.961 E.02627
G1 X134.048 Y98.564 E.06055
G1 X134.368 Y98.112 E.02796
G1 X134.368 Y97.369 E.03751
G1 X137.204 Y97.368 E.14316
G1 X137.62 Y97.116 E.02455
G1 X138.274 Y95.856 E.07166
G1 X138.227 Y95.348 E.02575
G1 X137.359 Y94.269 E.0699
G1 X136.95 Y93.815 E.03085
G1 X136.144 Y93.012 E.05743
G1 X135.689 Y92.604 E.03085
G1 X135.185 Y92.188 E.03299
G1 X142.762 Y92.188 E.38248
G1 X142.762 Y97.138 E.24987
G1 X145.237 Y97.138 E.12494
G1 X145.237 Y112.862 E.79373
G1 X142.762 Y112.862 E.12494
G1 X142.762 Y117.812 E.24987
G1 X135.185 Y117.812 E.38248
G1 X135.689 Y117.396 E.03299
G1 X136.144 Y116.988 E.03085
G1 X136.95 Y116.185 E.05743
G1 X137.359 Y115.731 E.03085
G1 X138.227 Y114.652 E.0699
G1 X138.274 Y114.144 E.02575
G1 X137.619 Y112.884 E.07168
G1 X137.204 Y112.631 E.02453
G1 X134.368 Y112.631 E.14316
G1 X134.368 Y111.888 E.03751
G1 X134.048 Y111.436 E.02796
G1 X132.916 Y111.039 E.06055
G1 X132.411 Y111.165 E.02627
G1 X131.641 Y111.974 E.05638
G1 X131.01 Y112.524 E.04225
G1 X130.678 Y112.778 E.0211
G1 X129.98 Y113.242 E.04231
G1 X129.245 Y113.644 E.04229
G1 X128.479 Y113.98 E.04222
G1 X128.085 Y114.123 E.02116
G1 X127.281 Y114.357 E.04227
G1 X126.459 Y114.519 E.04229
G1 X126.044 Y114.574 E.02113
G1 X125.208 Y114.629 E.04229
G1 X124.371 Y114.61 E.04226
G1 X123.954 Y114.574 E.02113
G1 X123.126 Y114.447 E.04229
G1 X122.717 Y114.357 E.02114
G1 X121.913 Y114.123 E.04227
G1 X121.132 Y113.82 E.04229
G1 X120.752 Y113.644 E.02114
G1 X120.017 Y113.242 E.04229
G1 X119.32 Y112.778 E.04227
G1 X118.987 Y112.524 E.02114
G1 X118.356 Y111.974 E.04225
G1 X117.587 Y111.165 E.05634
G1 X117.082 Y111.039 E.02627
G1 X115.95 Y111.436 E.06055
G1 X115.63 Y111.888 E.02796
G1 X115.63 Y112.631 E.03751
G1 X112.793 Y112.632 E.14321
G1 X112.378 Y112.884 E.02451
G1 X111.725 Y114.142 E.07155
G1 X111.769 Y114.647 E.02559
G1 X112.273 Y115.296 E.04148
G1 X112.642 Y115.736 E.02899
G1 X113.052 Y116.19 E.03088
G1 X113.858 Y116.993 E.05743
G1 X114.299 Y117.388 E.02989
G1 X114.812 Y117.812 E.0336
G1 X107.238 Y117.812 E.38233
G1 X107.238 Y112.862 E.24987
G1 X104.763 Y112.862 E.12494
G1 X104.763 Y97.138 E.79373
G1 X107.238 Y97.138 E.12494
G1 X107.238 Y92.188 E.24987
G1 X114.785 Y92.188 E.38096
M204 S1000
;WIPE_START
G1 F8640
G1 X111.32 Y92.188 E-.8
;WIPE_END
G1 Z.6 F720
G1 X124.795 Y96.633 F10800
G1 Z.2 F720
G1 E.8 F1500
M204 S800
G1 F1200
G1 X125.634 Y96.655 E.04237
G1 X126.488 Y96.765 E.04347
G1 X127.327 Y96.961 E.04349
G1 X128.141 Y97.243 E.04349
G1 X128.922 Y97.608 E.04352
G1 X129.661 Y98.05 E.04347
G1 X130.351 Y98.566 E.04349
G1 X130.705 Y98.879 E.02385
G1 X131.292 Y99.484 E.04255
G1 X131.826 Y100.16 E.04349
G1 X132.288 Y100.888 E.04352
G1 X132.672 Y101.659 E.04348
G1 X132.975 Y102.466 E.04351
G1 X133.189 Y103.277 E.04234
G1 X133.322 Y104.128 E.04348
G1 X133.368 Y104.989 E.04352
G1 X133.325 Y105.849 E.04347
G1 X133.193 Y106.701 E.04352
M73 Q2 S20
G1 X133.089 Y107.142 E.02287
G1 X132.826 Y107.963 E.04352
G1 X132.49 Y108.732 E.04236
G1 X132.066 Y109.482 E.04349
G1 X131.568 Y110.185 E.04349
G1 X131 Y110.833 E.0435
M73 P2 R20
G1 X130.369 Y111.419 E.04347
G1 X130.013 Y111.701 E.02293
G1 X129.298 Y112.181 E.04347
G1 X128.536 Y112.585 E.04354
G1 X127.759 Y112.901 E.04234
G1 X126.932 Y113.143 E.0435
G1 X126.084 Y113.298 E.04352
G1 X125.225 Y113.366 E.0435
G1 X124.772 Y113.366 E.02287
G1 X123.913 Y113.298 E.0435
G1 X123.066 Y113.143 E.04347
G1 X122.239 Y112.901 E.0435
G1 X121.461 Y112.585 E.04239
G1 X120.7 Y112.181 E.04349
G1 X119.985 Y111.701 E.04347
G1 X119.322 Y111.149 E.04355
G1 X118.72 Y110.533 E.04348
G1 X118.196 Y109.873 E.04254
G1 X117.931 Y109.482 E.02384
G1 X117.508 Y108.732 E.04347
G1 X117.164 Y107.942 E.04349
G1 X116.903 Y107.121 E.04349
G1 X116.728 Y106.277 E.04351
G1 X116.64 Y105.42 E.04349
G1 X116.64 Y104.58 E.0424
G1 X116.728 Y103.723 E.04349
G1 X116.903 Y102.879 E.04351
G1 X117.164 Y102.058 E.04349
G1 X117.508 Y101.268 E.04349
G1 X117.931 Y100.518 E.04347
G1 X118.196 Y100.127 E.02384
G1 X118.72 Y99.467 E.04254
G1 X119.322 Y98.851 E.04348
G1 X119.967 Y98.313 E.0424
G1 X120.681 Y97.831 E.04349
G1 X121.441 Y97.425 E.04349
G1 X122.239 Y97.099 E.04351
G1 X123.066 Y96.857 E.0435
G1 X123.913 Y96.702 E.04347
G1 X124.704 Y96.638 E.04006
M204 S1000
;WIPE_START
G1 F8640
G1 X123.913 Y96.702 E-.18324
G1 X123.066 Y96.857 E-.19882
G1 X122.239 Y97.099 E-.19896
G1 X121.441 Y97.425 E-.19904
G1 X121.365 Y97.466 E-.01994
;WIPE_END
G1 Z.6 F720
G1 X144.561 Y112.589 F10800
G1 Z.2 F720
G1 E.8 F1500
M204 S800
G1 F1200
G1 X144.561 Y97.684 E.75239
G1 X143.887 Y97.684 E.03402
G1 X143.887 Y112.316 E.73861
G1 X143.212 Y112.316 E.03407
G1 X143.212 Y97.684 E.73861
G1 X142.538 Y97.684 E.03402
G1 X142.538 Y112.316 E.73861
G1 X142.215 Y112.316 E.0163
G1 X142.215 Y117.266 E.24987
G1 X141.863 Y117.266 E.01777
G1 X141.863 Y92.734 E1.23835
G1 X141.189 Y92.734 E.03402
G1 X141.189 Y117.266 E1.23835
G1 X140.514 Y117.266 E.03407
G1 X140.514 Y92.734 E1.23835
G1 X139.84 Y92.734 E.03402
G1 X139.84 Y117.266 E1.23835
G1 X139.165 Y117.266 E.03407
G1 X139.165 Y92.734 E1.23835
G1 X138.491 Y92.734 E.03402
G1 X138.491 Y94.798 E.10419
G1 X137.816 Y93.963 E.0542
G1 X137.816 Y92.734 E.06204
G1 X137.142 Y92.734 E.03402
G1 X137.142 Y93.62 E.04472
M204 S1000
;WIPE_START
M73 Q3 S20
G1 F8640
G1 X137.142 Y92.734 E-.20458
G1 X137.816 Y92.734 E-.15563
G1 X137.816 Y93.963 E-.28378
G1 X138.241 Y94.488 E-.15601
;WIPE_END
M73 P3 R20
G1 Z.6 F720
G1 X138.491 Y117.539 F10800
G1 Z.2 F720
G1 E.8 F1500
M204 S800
G1 F1200
G1 X138.491 Y115.202 E.11797
G1 X137.816 Y116.037 E.0542
G1 X137.816 Y117.266 E.06204
G1 X137.142 Y117.266 E.03402
G1 X137.142 Y116.38 E.04472
M204 S1000
G1 X138.491 Y113.968 F10800
M204 S800
G1 F1200
G1 X138.491 Y96.624 E.87551
G1 X138.034 Y97.503 E.05001
G1 X137.816 Y97.636 E.01289
G1 X137.816 Y112.364 E.74345
G1 X137.356 Y112.085 E.02716
G1 X137.142 Y112.085 E.0108
G1 X137.142 Y97.914 E.71534
G1 X136.467 Y97.915 E.03407
G1 X136.467 Y112.085 E.71529
G1 X135.793 Y112.085 E.03402
G1 X135.793 Y97.915 E.71529
G1 X135.118 Y97.915 E.03407
G1 X135.118 Y112.085 E.71529
G1 X134.914 Y112.085 E.0103
G1 X134.914 Y111.714 E.01873
G1 X134.443 Y111.05 E.04109
G1 X134.443 Y98.95 E.61079
G1 X134.393 Y99.022 E.00442
G1 X133.769 Y99.241 E.03338
G1 X133.769 Y110.759 E.58142
G1 X133.094 Y110.522 E.03611
G1 X133.094 Y108.729 E.09051
G1 X132.767 Y109.375 E.03655
G1 X132.42 Y109.937 E.03334
G1 X132.42 Y110.6 E.03347
G1 X132.12 Y110.674 E.0156
G1 X131.745 Y111.081 E.02794
G1 X131.745 Y110.826 E.01287
G1 X131.396 Y111.209 E.02616
G1 X131.071 Y111.528 E.02299
G1 X131.071 Y111.754 E.01141
G1 X130.972 Y111.844 E.00675
G1 X130.396 Y112.306 E.03727
G1 X130.396 Y112.095 E.01065
G1 X129.722 Y112.559 E.04131
G1 X129.722 Y112.759 E.0101
G1 X129.355 Y112.972 E.02142
G1 X129.047 Y113.131 E.0175
G1 X129.047 Y112.941 E.00959
G1 X128.373 Y113.252 E.03747
G1 X128.373 Y113.433 E.00914
G1 X127.698 Y113.672 E.03615
G1 X127.698 Y113.494 E.00899
G1 X127.024 Y113.682 E.03532
G1 X127.024 Y113.854 E.00868
G1 X126.765 Y113.911 E.01339
G1 X126.349 Y113.983 E.02131
G1 X126.349 Y113.81 E.00873
G1 X125.675 Y113.89 E.03426
G1 X125.675 Y114.058 E.00848
G1 X125.196 Y114.082 E.02421
G1 X125 Y114.082 E.00989
G1 X125 Y113.913 E.00853
G1 X124.325 Y113.89 E.03409
G1 X124.325 Y114.058 E.00848
G1 X123.651 Y113.983 E.03423
G1 X123.651 Y113.81 E.00873
G1 X122.976 Y113.683 E.03467
G1 X122.976 Y113.854 E.00863
G1 X122.302 Y113.673 E.03523
G1 X122.302 Y113.495 E.00899
G1 X121.627 Y113.253 E.0362
G1 X121.627 Y113.434 E.00914
G1 X120.953 Y113.133 E.03726
G1 X120.953 Y112.942 E.00964
G1 X120.278 Y112.561 E.03913
G1 X120.278 Y112.761 E.0101
G1 X119.966 Y112.563 E.01865
G1 X119.604 Y112.308 E.02235
G1 X119.604 Y112.097 E.01065
G1 X118.929 Y111.53 E.0445
G1 X118.929 Y111.756 E.01141
G1 X118.255 Y111.084 E.04804
G1 X118.255 Y110.829 E.01287
G1 X117.997 Y110.519 E.02036
G1 X117.58 Y109.94 E.03602
G1 X117.58 Y110.6 E.03332
G1 X117.055 Y110.469 E.02731
G1 X116.906 Y110.522 E.00798
G1 X116.906 Y108.031 E.12574
M204 S1000
;WIPE_START
G1 F8640
G1 X116.906 Y110.522 E-.57518
G1 X117.055 Y110.469 E-.03652
G1 X117.58 Y110.6 E-.12494
G1 X117.58 Y110.326 E-.06336
;WIPE_END
G1 Z.6 F720
G1 X133.094 Y101.976 F10800
G1 Z.2 F720
G1 E.8 F1500
M204 S800
G1 F1200
G1 X133.094 Y99.478 E.1261
G1 X132.943 Y99.531 E.00808
G1 X132.42 Y99.4 E.02722
G1 X132.42 Y100.063 E.03347
G1 X132.001 Y99.481 E.0362
G1 X131.745 Y99.174 E.02018
G1 X131.745 Y98.919 E.01287
G1 X131.071 Y98.246 E.04808
G1 X131.071 Y98.472 E.01141
G1 X130.396 Y97.905 E.0445
G1 X130.396 Y97.694 E.01065
G1 X130.031 Y97.437 E.02253
G1 X129.722 Y97.241 E.01847
G1 X129.722 Y97.441 E.0101
G1 X129.047 Y97.059 E.03915
G1 X129.047 Y96.869 E.00959
G1 X128.373 Y96.567 E.03728
G1 X128.373 Y96.748 E.00914
G1 X127.698 Y96.506 E.0362
G1 X127.698 Y96.328 E.00899
G1 X127.024 Y96.146 E.03524
G1 X127.024 Y96.318 E.00868
G1 X126.349 Y96.19 E.03468
G1 X126.349 Y96.017 E.00873
G1 X125.675 Y95.942 E.03423
G1 X125.675 Y96.11 E.00848
G1 X125 Y96.087 E.03409
G1 X125 Y95.918 E.00853
G1 X124.801 Y95.918 E.01005
G1 X124.325 Y95.942 E.02406
G1 X124.325 Y96.11 E.00848
G1 X123.651 Y96.19 E.03426
G1 X123.651 Y96.017 E.00873
G1 X123.232 Y96.089 E.02146
G1 X122.976 Y96.146 E.01324
G1 X122.976 Y96.317 E.00863
G1 X122.302 Y96.505 E.03532
G1 X122.302 Y96.327 E.00899
G1 X121.627 Y96.566 E.03615
G1 X121.627 Y96.747 E.00914
G1 X120.953 Y97.058 E.03747
G1 X120.953 Y96.867 E.00964
G1 X120.642 Y97.028 E.01768
G1 X120.278 Y97.239 E.02124
G1 X120.278 Y97.439 E.0101
G1 X119.604 Y97.903 E.04131
G1 X119.604 Y97.692 E.01065
G1 X119.025 Y98.156 E.03745
G1 X118.929 Y98.244 E.00657
G1 X118.929 Y98.47 E.01141
G1 X118.601 Y98.791 E.02317
G1 X118.255 Y99.171 E.02594
G1 X118.255 Y98.916 E.01287
G1 X117.878 Y99.326 E.02812
G1 X117.58 Y99.4 E.0155
G1 X117.58 Y100.06 E.03332
G1 X117.231 Y100.625 E.03352
G1 X116.906 Y101.266 E.03628
G1 X116.906 Y99.478 E.09026
G1 X116.231 Y99.242 E.0361
G1 X116.231 Y110.758 E.58131
G1 X115.605 Y110.978 E.03349
G1 X115.557 Y111.046 E.0042
G1 X115.557 Y98.954 E.61039
G1 X115.083 Y98.286 E.04135
M73 P4 R20
M73 Q4 S20
G1 X115.083 Y97.915 E.01873
G1 X114.882 Y97.915 E.01015
G1 X114.882 Y112.085 E.71529
G1 X114.207 Y112.085 E.03407
G1 X114.207 Y97.915 E.71529
G1 X113.533 Y97.915 E.03402
G1 X113.533 Y112.085 E.71529
G1 X112.858 Y112.086 E.03407
G1 X112.858 Y97.915 E.71534
G1 X112.641 Y97.915 E.01095
G1 X112.184 Y97.638 E.02698
G1 X112.184 Y112.363 E.7433
G1 X111.963 Y112.497 E.01305
G1 X111.509 Y113.371 E.04972
G1 X111.509 Y96.629 E.84512
G1 X111.166 Y95.969 E.03755
G1 X111.239 Y95.147 E.04166
G1 X111.509 Y94.795 E.02239
G1 X111.509 Y92.734 E.10404
G1 X112.184 Y92.734 E.03407
G1 X112.184 Y93.96 E.06189
G1 X112.858 Y93.225 E.05034
G1 X112.858 Y92.461 E.03857
M204 S1000
;WIPE_START
G1 F8640
G1 X112.858 Y93.225 E-.17641
G1 X112.184 Y93.96 E-.23027
G1 X112.184 Y92.734 E-.28309
G1 X111.707 Y92.734 E-.11023
;WIPE_END
G1 Z.6 F720
G1 X112.858 Y117.539 F10800
G1 Z.2 F720
G1 E.8 F1500
M204 S800
G1 F1200
G1 X112.858 Y116.775 E.03857
G1 X112.184 Y116.04 E.05034
G1 X112.184 Y117.266 E.06189
G1 X111.509 Y117.266 E.03407
G1 X111.509 Y114.757 E.12665
M204 S1000
G1 X110.835 Y117.539 F10800
M204 S800
G1 F1200
G1 X110.835 Y92.734 E1.25213
G1 X110.16 Y92.734 E.03407
M73 P4 R19
G1 X110.16 Y117.266 E1.23835
G1 X109.486 Y117.266 E.03402
G1 X109.486 Y92.734 E1.23835
G1 X108.811 Y92.734 E.03407
G1 X108.811 Y117.266 E1.23835
G1 X108.137 Y117.266 E.03402
G1 X108.137 Y92.734 E1.23835
G1 X107.785 Y92.734 E.01777
M73 P5 R19
M73 Q5 S20
G1 X107.785 Y97.684 E.24987
G1 X107.462 Y97.684 E.0163
M73 Q5 S19
G1 X107.462 Y112.316 E.73861
G1 X106.788 Y112.316 E.03402
G1 X106.788 Y97.684 E.73861
G1 X106.113 Y97.684 E.03407
G1 X106.113 Y112.316 E.73861
G1 X105.439 Y112.316 E.03402
G1 X105.439 Y97.411 E.75239
M204 S1000
;WIPE_START
G1 F8640
G1 X105.439 Y100.876 E-.8
;WIPE_END
G1 Z.6 F720
G1 X125.213 Y98.776 F10800
G1 Z.2 F720
G1 E.8 F1500
M204 S800
G1 F1200
G1 X125.827 Y98.829 E.03111
G1 X126.282 Y98.907 E.0233
G1 X126.878 Y99.063 E.0311
G1 X127.447 Y99.274 E.03063
G1 X128.093 Y99.595 E.03641
G1 X128.604 Y99.922 E.03062
G1 X129.088 Y100.304 E.03112
G1 X129.424 Y100.62 E.02328
G1 X129.836 Y101.078 E.0311
G1 X130.195 Y101.568 E.03066
G1 X130.557 Y102.192 E.03642
G1 X130.806 Y102.75 E.03084
G1 X130.926 Y103.09 E.0182
G1 X131.084 Y103.677 E.03069
G1 X131.196 Y104.389 E.03638
G1 X131.226 Y105 E.03088
G1 X131.196 Y105.611 E.03088
