; generated by PrusaSlicer 2.6.0+linux-x64-GTK2 on 2023-08-14 at 12:20:19 UTC


;
;
; 

; external perimeters extrusion width = 0.68mm
; perimeters extrusion width = 0.68mm
; infill extrusion width = 0.68mm
; solid infill extrusion width = 0.68mm
; top infill extrusion width = 0.60mm
; first layer extrusion width = 0.65mm

; external perimeters extrusion width = 0.68mm
; perimeters extrusion width = 0.68mm
; infill extrusion width = 0.68mm
; solid infill extrusion width = 0.68mm
; top infill extrusion width = 0.60mm
; first layer extrusion width = 0.65mm

; external perimeters extrusion width = 0.68mm
; perimeters extrusion width = 0.68mm
; infill extrusion width = 0.68mm
; solid infill extrusion width = 0.68mm
; top infill extrusion width = 0.60mm
; first layer extrusion width = 0.65mm

; external perimeters extrusion width = 0.68mm
; perimeters extrusion width = 0.68mm
; infill extrusion width = 0.68mm
; solid infill extrusion width = 0.68mm
; top infill extrusion width = 0.60mm
; first layer extrusion width = 0.65mm

M73 P0 R57
M73 Q0 S57
M201 X1000 Y1000 Z200 E5000 ; sets maximum accelerations, mm/sec^2
M203 X200 Y200 Z12 E120 ; sets maximum feedrates, mm / sec
M204 S1250 T1250 ; sets acceleration (S) and retract acceleration (R), mm/sec^2
M205 X8.00 Y8.00 Z0.40 E4.50 ; sets the jerk limits, mm/sec
M205 S0 T0 ; sets the minimum extruding and travel feed rate, mm/sec
;TYPE:Custom
M862.3 P "MK3S" ; printer model check
M862.1 P0.6 ; nozzle diameter check
M115 U3.12.2 ; tell printer latest fw version
G90 ; use absolute coordinates
M83 ; extruder relative mode
M104 S215 ; set extruder temp
M140 S60 ; set bed temp
M190 S60 ; wait for bed temp
M109 S215 ; wait for extruder temp
G28 W ; home all without mesh bed level
G80 ; mesh bed leveling

G1 Z0.2 F720
G1 Y-3 F1000 ; go outside print area
G92 E0
G1 X60 E9 F1000 ; intro line
G1 X100 E12.5 F1000 ; intro line

G92 E0
M221 S95
G21 ; set units to millimeters
G90 ; use absolute coordinates
M83 ; use relative distances for extrusion
M900 K0.04 ; Filament gcode LA 1.5
M900 K18 ; Filament gcode LA 1.0
M107
;LAYER_CHANGE
;Z:0.2
;HEIGHT:0.2
;BEFORE_LAYER_CHANGE
G92 E0.0
;0.2


G1 E-.8 F2100
G1 Z.4 F720
;AFTER_LAYER_CHANGE
;0.2
G1 X88.057 Y70.141 F10800
G1 Z.2 F720
G1 E.8 F1500
M204 S800
;TYPE:Skirt/Brim
;WIDTH:0.65
G1 F1200
G1 X89.095 Y68.922 E.08082
G1 X89.794 Y68.226 E.04979
G1 X90.974 Y67.224 E.07814
G1 X92.292 Y66.315 E.08082
G1 X93.577 Y65.602 E.07418
G1 X95.046 Y64.964 E.08085
G1 X97.48 Y64.268 E.12779
G1 X99 Y64.038 E.0776
G1 X144.478 Y59.438 E2.30739
G1 X146.81 Y59.375 E.11776
G1 X149.193 Y59.668 E.1212
G1 X151.628 Y60.365 E.12785
G1 X152.978 Y60.945 E.07417
G1 X154.381 Y61.716 E.08081
G1 X156.422 Y63.215 E.12783
G1 X157.487 Y64.227 E.07416
G1 X158.535 Y65.437 E.0808
G1 X159.929 Y67.552 E.12787
G1 X160.576 Y68.871 E.07416
G1 X161.138 Y70.37 E.08081
G1 X161.711 Y72.837 E.12785
G1 X161.883 Y75.232 E.12121
G1 X160.655 Y122.578 E2.39078
G1 X160.368 Y124.829 E.11455
G1 X159.717 Y127.14 E.1212
G1 X158.724 Y129.325 E.12115
G1 X157.411 Y131.335 E.12119
G1 X156.374 Y132.554 E.08079
G1 X155.218 Y133.662 E.08083
G1 X153.955 Y134.648 E.08088
G1 X152.6 Y135.5 E.0808
G1 X151.165 Y136.212 E.08086
G1 X149.666 Y136.774 E.08081
G1 X148.118 Y137.182 E.08081
G1 X146.459 Y137.44 E.08475
G1 X97.158 Y142.214 E2.5003
G1 X95.689 Y142.214 E.07415
G1 X94.095 Y142.059 E.08084
G1 X91.629 Y141.486 E.1278
G1 X89.403 Y140.587 E.12118
G1 X88.006 Y139.804 E.08084
M73 P0 R56
G1 X86.8 Y138.964 E.07419
G1 X85.581 Y137.926 E.08082
G1 X84.387 Y136.67 E.08748
G1 X83.044 Y134.841 E.11454
G1 X82.203 Y133.326 E.08747
G1 X81.577 Y131.852 E.08084
G1 X80.953 Y129.67 E.11456
G1 X80.704 Y128.089 E.08079
G1 X80.616 Y126.358 E.08749
G1 X80.694 Y124.856 E.07592
G1 X84.962 Y77.436 E2.40338
G1 X85.311 Y75.739 E.08746
G1 X86.045 Y73.592 E.11454
G1 X86.808 Y72.036 E.08748
G1 X88.007 Y70.216 E.11002
M204 S1000
; printing object cap_v3-Body id:1 copy 0
;WIPE_START
G1 F8640
G1 X89.095 Y68.922 E-.39037
G1 X89.794 Y68.226 E-.22777
G1 X90.394 Y67.716 E-.18186
;WIPE_END
G1 Z.6 F720
G1 X106.004 Y119.761 F10800
G1 Z.2 F720
G1 E.8 F1500
M204 S800
;TYPE:Perimeter
;WIDTH:0.70041
G1 F1200
G1 X106.169 Y119.99 E.01543
;WIDTH:0.706876
G1 X106.829 Y121.12 E.07225
;WIDTH:0.713325
G1 X107.196 Y121.923 E.04922
G1 X107.414 Y122.487 E.03371
;WIDTH:0.698405
G1 X107.641 Y123.187 E.04011
;WIDTH:0.707468
G1 X107.773 Y123.67 E.02767
G1 X107.922 Y124.398 E.04106
;WIDTH:0.697872
G1 X108.062 Y125.502 E.0606
;WIDTH:0.701461
G1 X108.106 Y126.431 E.05093
;WIDTH:0.705853
G1 X108.093 Y126.906 E.02619
;WIDTH:0.706351
G1 X108.022 Y127.786 E.0487
G1 X107.871 Y128.745 E.05355
;WIDTH:0.704981
G1 X107.669 Y129.562 E.04633
;WIDTH:0.709238
G1 X107.525 Y130.045 E.02792
G1 X107.171 Y130.997 E.05627
;WIDTH:0.704278
G1 X106.602 Y132.153 E.07085
;WIDTH:0.706216
G1 X106.087 Y132.982 E.05383
;WIDTH:0.713711
G1 X105.565 Y133.687 E.04893
G1 X105.153 Y134.179 E.03579
;WIDTH:0.701553
G1 X104.574 Y134.788 E.04602
G1 X103.73 Y135.532 E.06162
;WIDTH:0.7068
G1 X103.27 Y135.885 E.03201
G1 X102.823 Y136.193 E.02997
;WIDTH:0.701076
G1 X102.099 Y136.632 E.04634
;WIDTH:0.711394
G1 X101.638 Y136.871 E.02886
G1 X100.454 Y137.379 E.07161
;WIDTH:0.705384
G1 X99.478 Y137.697 E.05654
G1 X98.557 Y137.906 E.05202
;WIDTH:0.701192
G1 X97.72 Y138.032 E.04633
;WIDTH:0.707013
G1 X97.197 Y138.077 E.02899
G1 X96.315 Y138.103 E.04872
;WIDTH:0.705413
G1 X95.35 Y138.053 E.05323
;WIDTH:0.713956
G1 X94.482 Y137.937 E.04886
G1 X93.822 Y137.806 E.03754
;WIDTH:0.701404
G1 X93.012 Y137.593 E.04586
;WIDTH:0.704803
G1 X91.814 Y137.156 E.07018
G1 X91.045 Y136.786 E.04697
;WIDTH:0.705479
G1 X90.6 Y136.547 E.02783
G1 X90.07 Y136.218 E.03437
;WIDTH:0.715093
G1 X89.407 Y135.755 E.0452
G1 X88.719 Y135.202 E.04934
;WIDTH:0.704954
G1 X88.029 Y134.545 E.05245
G1 X87.462 Y133.916 E.04662
;WIDTH:0.705767
G1 X87.147 Y133.52 E.02789
;WIDTH:0.706723
G1 X86.588 Y132.72 E.05387
G1 X86.142 Y131.966 E.04835
;WIDTH:0.704283
G1 X85.758 Y131.17 E.0486
;WIDTH:0.709529
G1 X85.542 Y130.659 E.03075
G1 X85.226 Y129.746 E.05355
;WIDTH:0.703586
G1 X84.935 Y128.531 E.06863
G1 X84.812 Y127.672 E.04767
;WIDTH:0.714064
G1 X84.768 Y127.099 E.03207
G1 X84.755 Y126.022 E.06011
;WIDTH:0.701943
G1 X84.798 Y125.301 E.03958
;WIDTH:0.707527
G1 X84.86 Y124.789 E.0285
G1 X85.012 Y123.932 E.0481
;WIDTH:0.704186
G1 X85.231 Y123.09 E.04784
;WIDTH:0.70576
G1 X85.408 Y122.542 E.03174
G1 X85.733 Y121.721 E.04867
;WIDTH:0.706582
G1 X86.159 Y120.854 E.05331
G1 X86.604 Y120.099 E.04836
;WIDTH:0.703693
G1 X87.134 Y119.355 E.05019
;WIDTH:0.709368
G1 X87.459 Y118.942 E.02912
G1 X88.012 Y118.32 E.04612
;WIDTH:0.707099
G1 X88.378 Y117.958 E.02843
G1 X88.95 Y117.453 E.04214
;WIDTH:0.698133
G1 X89.759 Y116.84 E.0553
;WIDTH:0.713694
G1 X90.613 Y116.297 E.05644
G1 X91.393 Y115.883 E.04925
;WIDTH:0.707253
G1 X92.281 Y115.505 E.05331
G1 X92.985 Y115.263 E.04112
G1 X93.558 Y115.102 E.03288
G1 X94.077 Y114.988 E.02935
;WIDTH:0.696939
G1 X94.936 Y114.845 E.04736
;WIDTH:0.711176
G1 X95.456 Y114.788 E.02907
;WIDTH:0.711298
G1 X96.236 Y114.75 E.0434
G1 X96.738 Y114.748 E.0279
;WIDTH:0.702037
G1 X97.552 Y114.801 E.04471
;WIDTH:0.70735
G1 X98.156 Y114.874 E.03361
G1 X99.024 Y115.038 E.0488
;WIDTH:0.706868
G1 X99.96 Y115.293 E.05356
G1 X100.695 Y115.557 E.04312
;WIDTH:0.697942
G1 X101.621 Y115.971 E.05525
;WIDTH:0.713996
G1 X102.482 Y116.444 E.05482
G1 X103.221 Y116.926 E.04923
;WIDTH:0.707078
G1 X103.981 Y117.521 E.0533
G1 X104.577 Y118.065 E.04456
;WIDTH:0.713827
G1 X105.009 Y118.513 E.03472
G1 X105.679 Y119.308 E.058
;WIDTH:0.70041
G1 X105.951 Y119.688 E.02555
M204 S1000
G1 X106.539 Y119.409 F10800
M204 S800
;TYPE:External perimeter
;WIDTH:0.649999
G1 F1200
G1 X107.157 Y120.386 E.05836
G1 X107.394 Y120.828 E.02532
G1 X107.782 Y121.665 E.04657
G1 X108.135 Y122.617 E.05125
G1 X108.388 Y123.505 E.04661
G1 X108.497 Y123.994 E.02529
G1 X108.656 Y124.999 E.05136
G1 X108.728 Y125.919 E.04658
G1 X108.738 Y126.444 E.02651
G1 X108.728 Y126.928 E.02444
G1 X108.656 Y127.848 E.04658
G1 X108.497 Y128.854 E.05141
G1 X108.388 Y129.343 E.02529
G1 X108.135 Y130.23 E.04656
G1 X107.782 Y131.183 E.0513
G1 X107.394 Y132.02 E.04657
G1 X107.157 Y132.461 E.02527
G1 X106.621 Y133.327 E.05141
G1 X106.076 Y134.072 E.0466
G1 X105.757 Y134.458 E.02528
G1 X105.062 Y135.201 E.05136
G1 X104.309 Y135.881 E.05122
G1 X103.654 Y136.391 E.0419
G1 X103.243 Y136.678 E.0253
G1 X102.371 Y137.207 E.05148
G1 X101.927 Y137.441 E.02533
G1 X101.087 Y137.821 E.04654
G1 X100.129 Y138.168 E.05143
G1 X99.648 Y138.309 E.0253
G1 X98.749 Y138.517 E.04658
G1 X97.742 Y138.668 E.0514
G1 X97.243 Y138.711 E.02528
G1 X96.321 Y138.738 E.04656
G1 X95.307 Y138.688 E.05125
G1 X94.391 Y138.57 E.04662
G1 X93.899 Y138.477 E.02528
G1 X92.912 Y138.227 E.0514
G1 X92.038 Y137.931 E.04658
G1 X91.111 Y137.534 E.0509
G1 X90.294 Y137.104 E.0466
G1 X89.432 Y136.562 E.0514
G1 X89.026 Y136.269 E.02527
G1 X88.309 Y135.687 E.04662
G1 X87.574 Y134.987 E.05124
G1 X86.957 Y134.3 E.04661
G1 X86.645 Y133.909 E.02525
G1 X86.06 Y133.075 E.05142
G1 X85.591 Y132.281 E.04655
G1 X85.361 Y131.835 E.02533
G1 X84.953 Y130.904 E.05131
G1 X84.624 Y129.944 E.05123
G1 X84.413 Y129.141 E.04191
G1 X84.312 Y128.65 E.0253
G1 X84.169 Y127.64 E.05149
G1 X84.13 Y127.14 E.02532
G1 X84.111 Y126.217 E.0466
G1 X84.17 Y125.201 E.05137
G1 X84.23 Y124.704 E.02527
G1 X84.393 Y123.795 E.04662
G1 X84.651 Y122.81 E.0514
G1 X84.808 Y122.335 E.02525
G1 X85.146 Y121.476 E.0466
G1 X85.592 Y120.564 E.05125
G1 X86.062 Y119.769 E.04662
G1 X86.341 Y119.353 E.02528
G1 X86.96 Y118.545 E.05138
G1 X87.576 Y117.858 E.04658
G1 X87.934 Y117.502 E.02549
G1 X88.307 Y117.162 E.02548
G1 X89.023 Y116.581 E.04655
G1 X89.862 Y116.003 E.05143
G1 X90.291 Y115.745 E.02527
G1 X91.108 Y115.315 E.0466
G1 X92.041 Y114.915 E.05124
G1 X92.915 Y114.619 E.04658
G1 X93.398 Y114.486 E.02529
G1 X94.394 Y114.277 E.05137
G1 X95.401 Y114.153 E.05122
G1 X96.23 Y114.112 E.0419
G1 X96.731 Y114.113 E.02529
G1 X97.749 Y114.18 E.0515
G1 X98.246 Y114.244 E.0253
G1 X99.153 Y114.416 E.0466
G1 X100.136 Y114.682 E.05141
G1 X100.611 Y114.842 E.0253
G1 X101.466 Y115.189 E.04658
G1 X102.377 Y115.643 E.05138
G1 X102.81 Y115.894 E.02526
G1 X103.581 Y116.402 E.04661
G1 X104.382 Y117.026 E.05125
G1 X105.129 Y117.714 E.05126
G1 X105.476 Y118.077 E.02535
G1 X106.018 Y118.705 E.04187
G1 X106.486 Y119.337 E.0397
M204 S1000
G1 X106.28 Y119.951 F10800
;WIPE_START
G1 F8640
G1 X107.157 Y120.386 E-.28753
G1 X107.394 Y120.828 E-.1158
G1 X107.782 Y121.665 E-.21302
G1 X108.059 Y122.411 E-.18365
;WIPE_END
G1 Z.6 F720
G1 X101.05 Y136.399 F10800
G1 Z.2 F720
G1 E.8 F1500
M204 S800
;TYPE:Perimeter
;WIDTH:0.710553
G1 F1200
G1 X100.582 Y136.617 E.02866
G1 X99.724 Y136.937 E.05084
;WIDTH:0.704372
G1 X98.542 Y137.24 E.06711
;WIDTH:0.701192
G1 X97.623 Y137.38 E.05088
G1 X96.567 Y137.444 E.05791
;WIDTH:0.698447
G1 X95.638 Y137.417 E.05066
;WIDTH:0.713956
G1 X94.084 Y137.193 E.0876
;WIDTH:0.701991
G1 X93.986 Y137.171 E.0055
;WIDTH:0.701723
G1 X93.298 Y136.992 E.03894
;WIDTH:0.705555
G1 X92.484 Y136.712 E.04743
;WIDTH:0.707099
G1 X91.676 Y136.363 E.04861
G1 X90.943 Y135.98 E.04567
;WIDTH:0.705479
G1 X90.503 Y135.719 E.02818
;WIDTH:0.715093
G1 X89.268 Y134.803 E.08594
;WIDTH:0.701151
G1 X88.672 Y134.257 E.04424
;WIDTH:0.701286
G1 X87.958 Y133.482 E.05769
G1 X87.395 Y132.742 E.0509
;WIDTH:0.698674
G1 X86.83 Y131.848 E.05767
;WIDTH:0.707651
G1 X86.313 Y130.803 E.06444
;WIDTH:0.699401
G1 X85.895 Y129.679 E.06546
;WIDTH:0.705149
G1 X85.675 Y128.84 E.04776
G1 X85.479 Y127.72 E.06261
;WIDTH:0.714064
G1 X85.408 Y126.222 E.08369
;WIDTH:0.705232
G1 X85.456 Y125.342 E.04853
;WIDTH:0.701943
G1 X85.609 Y124.301 E.05766
;WIDTH:0.700207
G1 X85.865 Y123.265 E.05832
;WIDTH:0.70576
G1 X86.03 Y122.773 E.0286
G1 X86.333 Y122.002 E.04566
;WIDTH:0.705472
G1 X86.542 Y121.546 E.02763
;WIDTH:0.698932
G1 X87.054 Y120.62 E.05772
;WIDTH:0.707657
G1 X87.722 Y119.663 E.06451
;WIDTH:0.702154
G1 X88.506 Y118.756 E.06572
;WIDTH:0.705115
G1 X89.163 Y118.137 E.0497
G1 X89.805 Y117.616 E.04553
;WIDTH:0.713992
G1 X90.563 Y117.11 E.05085
G1 X91.366 Y116.634 E.05209
;WIDTH:0.699272
G1 X92.1 Y116.289 E.04426
;WIDTH:0.698728
G1 X93.085 Y115.921 E.05734
;WIDTH:0.707253
G1 X94.198 Y115.631 E.06353
;WIDTH:0.696939
G1 X95.031 Y115.492 E.04593
;WIDTH:0.711298
G1 X96.269 Y115.417 E.06893
G1 X97.407 Y115.447 E.06327
;WIDTH:0.70735
G1 X98.048 Y115.53 E.03571
G1 X98.861 Y115.68 E.04567
;WIDTH:0.705248
G1 X99.356 Y115.801 E.02806
;WIDTH:0.705536
G1 X100.17 Y116.063 E.04711
G1 X100.936 Y116.373 E.04553
;WIDTH:0.713699
G1 X101.746 Y116.792 E.05086
G1 X102.575 Y117.282 E.05371
;WIDTH:0.699323
G1 X103.231 Y117.759 E.04427
;WIDTH:0.697634
G1 X104.027 Y118.446 E.05724
;WIDTH:0.713827
G1 X105.016 Y119.531 E.0819
;WIDTH:0.705967
G1 X105.556 Y120.254 E.04975
;WIDTH:0.704925
G1 X106.037 Y121.04 E.05072
;WIDTH:0.713325
G1 X106.576 Y122.176 E.07009
G1 X106.782 Y122.663 E.02948
;WIDTH:0.698405
G1 X107.014 Y123.377 E.04092
;WIDTH:0.704981
G1 X107.225 Y124.25 E.04944
;WIDTH:0.706351
G1 X107.366 Y125.157 E.05064
G1 X107.431 Y125.981 E.0456
;WIDTH:0.705853
G1 X107.431 Y126.866 E.04878
G1 X107.402 Y127.389 E.02887
;WIDTH:0.698336
G1 X107.274 Y128.355 E.05311
;WIDTH:0.707468
G1 X107.125 Y129.029 E.03814
;WIDTH:0.709238
G1 X106.898 Y129.819 E.04554
G1 X106.613 Y130.623 E.04726
;WIDTH:0.704983
G1 X106.23 Y131.446 E.04997
G1 X105.685 Y132.398 E.06039
;WIDTH:0.713711
G1 X105.04 Y133.27 E.0605
G1 X104.678 Y133.725 E.03243
;WIDTH:0.701073
G1 X104.188 Y134.246 E.03914
;WIDTH:0.702881
G1 X103.469 Y134.897 E.05323
;WIDTH:0.7068
G1 X102.884 Y135.345 E.04067
G1 X101.758 Y136.069 E.0739
;WIDTH:0.710553
G1 X101.132 Y136.361 E.03835
M204 S1000
G1 X100.769 Y135.831 F10800
M204 S800
;TYPE:External perimeter
;WIDTH:0.649999
G1 F1200
G1 X100.318 Y136.037 E.02503
G1 X99.523 Y136.335 E.04286
G1 X98.393 Y136.626 E.0589
G1 X97.531 Y136.755 E.044
G1 X96.531 Y136.813 E.05056
G1 X95.659 Y136.786 E.04404
G1 X94.178 Y136.567 E.07557
G1 X93.459 Y136.38 E.0375
G1 X92.694 Y136.113 E.0409
G1 X91.945 Y135.787 E.04123
G1 X91.261 Y135.431 E.03892
G1 X90.819 Y135.172 E.02586
M73 Q1 S57
G1 X89.647 Y134.297 E.07383
G1 X89.101 Y133.794 E.03747
M73 P1 R56
G1 X88.425 Y133.056 E.05052
G1 X87.898 Y132.362 E.04399
G1 X87.365 Y131.513 E.0506
G1 X87.104 Y130.989 E.02955
G1 X86.767 Y130.214 E.04266
G1 X86.487 Y129.459 E.04065
G1 X86.29 Y128.685 E.04032
G1 X86.103 Y127.622 E.05448
G1 X86.039 Y126.126 E.07559
G1 X86.087 Y125.384 E.03753
G1 X86.234 Y124.394 E.05052
G1 X86.478 Y123.42 E.05069
G1 X86.764 Y122.597 E.04398
G1 X87.118 Y121.803 E.04388
G1 X87.606 Y120.928 E.05057
G1 X87.922 Y120.472 E.02801
G1 X88.44 Y119.8 E.04283
G1 X88.985 Y119.171 E.04201
G1 X89.594 Y118.602 E.04207
G1 X90.193 Y118.118 E.03887
G1 X90.893 Y117.657 E.04231
G1 X91.692 Y117.175 E.0471
G1 X92.365 Y116.861 E.03749
G1 X93.304 Y116.513 E.05055
G1 X93.87 Y116.364 E.02954
G1 X94.712 Y116.184 E.04346
G1 X95.533 Y116.092 E.0417
G1 X96.631 Y116.038 E.05549
G1 X97.372 Y116.078 E.03746
G1 X97.96 Y116.159 E.02996
G1 X98.715 Y116.298 E.03875
G1 X99.212 Y116.415 E.02577
G1 X99.969 Y116.665 E.04024
G1 X100.682 Y116.955 E.03885
G1 X101.425 Y117.344 E.04234
G1 X102.258 Y117.828 E.04863
G1 X102.857 Y118.267 E.03749
G1 X103.613 Y118.923 E.05053
G1 X104.617 Y120.037 E.0757
G1 X105.042 Y120.624 E.03658
G1 X105.494 Y121.368 E.04394
G1 X105.993 Y122.436 E.05951
G1 X106.195 Y122.895 E.02531
G1 X106.413 Y123.571 E.03585
G1 X106.607 Y124.395 E.04273
G1 X106.736 Y125.24 E.04315
G1 X106.797 Y126.008 E.03889
G1 X106.797 Y126.839 E.04195
G1 X106.736 Y127.608 E.03894
G1 X106.648 Y128.273 E.03386
G1 X106.506 Y128.884 E.03166
G1 X106.297 Y129.609 E.03809
G1 X106.016 Y130.415 E.04309
G1 X105.657 Y131.174 E.04238
G1 X105.142 Y132.077 E.05247
G1 X104.217 Y133.294 E.07716
G1 X103.728 Y133.811 E.03592
G1 X103.045 Y134.426 E.04639
G1 X102.153 Y135.091 E.05616
G1 X101.431 Y135.528 E.0426
G1 X100.851 Y135.793 E.03219
M204 S1000
G1 X100.733 Y136.326 F10800
; stop printing object cap_v3-Body id:1 copy 0
; printing object cap_v3-Body id:2 copy 0
;WIPE_START
G1 F8640
G1 X100.318 Y136.037 E-.13535
G1 X99.523 Y136.335 E-.19604
