; generated by PrusaSlicer 2.6.0+linux-x64-GTK2 on 2023-08-14 at 11:39:28 UTC


;
;
; 

; external perimeters extrusion width = 0.68mm
; perimeters extrusion width = 0.68mm
; infill extrusion width = 0.68mm
; solid infill extrusion width = 0.68mm
; top infill extrusion width = 0.60mm
; first layer extrusion width = 0.65mm

M73 P0 R14
M73 Q0 S14
M201 X1000 Y1000 Z200 E5000 ; sets maximum accelerations, mm/sec^2
M203 X200 Y200 Z12 E120 ; sets maximum feedrates, mm / sec
M204 S1250 T1250 ; sets acceleration (S) and retract acceleration (R), mm/sec^2
M205 X8.00 Y8.00 Z0.40 E4.50 ; sets the jerk limits, mm/sec
M205 S0 T0 ; sets the minimum extruding and travel feed rate, mm/sec
;TYPE:Custom
M862.3 P "MK3S" ; printer model check
M862.1 P0.6 ; nozzle diameter check
M115 U3.12.2 ; tell printer latest fw version
G90 ; use absolute coordinates
M83 ; extruder relative mode
M104 S215 ; set extruder temp
M140 S60 ; set bed temp
M190 S60 ; wait for bed temp
M109 S215 ; wait for extruder temp
G28 W ; home all without mesh bed level
G80 ; mesh bed leveling

G1 Z0.2 F720
G1 Y-3 F1000 ; go outside print area
G92 E0
G1 X60 E9 F1000 ; intro line
G1 X100 E12.5 F1000 ; intro line

G92 E0
M221 S95
G21 ; set units to millimeters
G90 ; use absolute coordinates
M83 ; use relative distances for extrusion
M900 K0.04 ; Filament gcode LA 1.5
M900 K18 ; Filament gcode LA 1.0
M107
;LAYER_CHANGE
;Z:0.2
;HEIGHT:0.2
;BEFORE_LAYER_CHANGE
G92 E0.0
;0.2


G1 E-.8 F2100
G1 Z.4 F720
;AFTER_LAYER_CHANGE
;0.2
G1 X112.552 Y94.121 F10800
G1 Z.2 F720
G1 E.8 F1500
M204 S800
;TYPE:Skirt/Brim
;WIDTH:0.65
G1 F1200
G1 X113.66 Y92.965 E.08083
G1 X114.879 Y91.928 E.08079
G1 X116.197 Y91.018 E.08085
G1 X117.482 Y90.305 E.07418
G1 X118.951 Y89.668 E.08083
G1 X120.477 Y89.182 E.08084
G1 X122.044 Y88.853 E.08083
G1 X123.636 Y88.684 E.08081
G1 X125.237 Y88.678 E.08082
G1 X127.749 Y88.998 E.12783
G1 X129.298 Y89.405 E.08085
G1 X130.797 Y89.968 E.08083
G1 X132.232 Y90.679 E.08084
G1 X133.587 Y91.532 E.08082
G1 X134.849 Y92.517 E.08081
G1 X136.005 Y93.625 E.08083
M73 Q1 S14
G1 X137.043 Y94.844 E.08082
G1 X137.883 Y96.05 E.07419
G1 X138.665 Y97.447 E.08082
G1 X139.303 Y98.916 E.08085
M73 P1 R14
G1 X139.789 Y100.442 E.08084
G1 X140.118 Y102.009 E.08083
G1 X140.286 Y103.601 E.08081
G1 X140.293 Y105.203 E.08087
G1 X140.138 Y106.796 E.08079
G1 X139.822 Y108.366 E.08084
G1 X139.349 Y109.896 E.08084
G1 X138.724 Y111.37 E.08082
G1 X137.439 Y113.552 E.12783
G1 X136.454 Y114.815 E.08085
G1 X135.346 Y115.97 E.08079
G1 X134.126 Y117.008 E.08086
G1 X132.92 Y117.848 E.07419
G1 X131.523 Y118.631 E.08084
G1 X130.055 Y119.268 E.08078
G1 X128.529 Y119.754 E.08084
G1 X126.962 Y120.083 E.08083
G1 X125.369 Y120.252 E.08086
G1 X123.768 Y120.258 E.08082
G1 X122.174 Y120.103 E.08084
G1 X121.204 Y119.926 E.04977
G1 X119.708 Y119.531 E.0781
G1 X118.208 Y118.968 E.08088
G1 X116.774 Y118.257 E.0808
G1 X115.418 Y117.404 E.08087
G1 X114.156 Y116.419 E.08081
G1 X113 Y115.311 E.08083
G1 X111.962 Y114.091 E.08086
G1 X111.053 Y112.773 E.08082
G1 X110.282 Y111.37 E.08081
G1 X109.702 Y110.02 E.07417
G1 X109.217 Y108.494 E.08083
G1 X108.888 Y106.927 E.08083
G1 X108.719 Y105.335 E.08081
G1 X108.712 Y103.733 E.08087
G1 X108.868 Y102.14 E.0808
G1 X109.044 Y101.169 E.04981
G1 X109.44 Y99.673 E.07812
G1 X110.002 Y98.174 E.08081
G1 X110.714 Y96.739 E.08086
G1 X111.566 Y95.384 E.0808
G1 X112.496 Y94.192 E.07632
M204 S1000
; printing object cap_v3-Body id:0 copy 0
;WIPE_START
G1 F8640
G1 X113.66 Y92.965 E-.39052
G1 X114.879 Y91.928 E-.36954
G1 X115.021 Y91.83 E-.03994
;WIPE_END
G1 Z.6 F720
G1 X134.083 Y97.805 F10800
G1 Z.2 F720
G1 E.8 F1500
M204 S800
;TYPE:Perimeter
;WIDTH:0.70041
G1 F1200
G1 X134.248 Y98.034 E.01543
;WIDTH:0.706876
G1 X134.908 Y99.165 E.07229
;WIDTH:0.713325
G1 X135.275 Y99.967 E.04917
G1 X135.493 Y100.531 E.03371
;WIDTH:0.698405
G1 X135.72 Y101.231 E.04011
;WIDTH:0.707468
G1 X135.852 Y101.714 E.02767
G1 X136.001 Y102.442 E.04106
;WIDTH:0.697872
G1 X136.141 Y103.546 E.0606
;WIDTH:0.701461
G1 X136.185 Y104.475 E.05093
;WIDTH:0.705853
G1 X136.172 Y104.95 E.02619
;WIDTH:0.706351
G1 X136.101 Y105.83 E.0487
G1 X135.95 Y106.79 E.05361
;WIDTH:0.704981
G1 X135.748 Y107.606 E.04628
;WIDTH:0.709238
G1 X135.604 Y108.089 E.02792
G1 X135.25 Y109.041 E.05627
;WIDTH:0.704278
G1 X134.681 Y110.197 E.07085
;WIDTH:0.706216
G1 X134.166 Y111.027 E.05387
;WIDTH:0.713711
G1 X133.644 Y111.731 E.04888
G1 X133.232 Y112.223 E.03579
;WIDTH:0.701553
G1 X132.653 Y112.832 E.04602
G1 X131.809 Y113.576 E.06162
;WIDTH:0.7068
G1 X131.349 Y113.929 E.03201
G1 X130.902 Y114.237 E.02997
;WIDTH:0.701076
G1 X130.178 Y114.676 E.04634
;WIDTH:0.711394
G1 X129.717 Y114.916 E.02889
G1 X128.533 Y115.424 E.07161
;WIDTH:0.705384
G1 X127.557 Y115.741 E.05653
G1 X126.636 Y115.951 E.05203
;WIDTH:0.701192
G1 X125.799 Y116.076 E.04632
;WIDTH:0.707013
G1 X125.276 Y116.121 E.02899
G1 X124.394 Y116.147 E.04872
;WIDTH:0.705413
G1 X123.429 Y116.098 E.05323
;WIDTH:0.713956
G1 X122.561 Y115.981 E.04887
G1 X121.901 Y115.85 E.03754
;WIDTH:0.701404
G1 X121.091 Y115.637 E.04586
;WIDTH:0.704803
G1 X119.893 Y115.2 E.07018
G1 X119.124 Y114.831 E.04694
;WIDTH:0.705479
G1 X118.679 Y114.591 E.02785
G1 X118.149 Y114.262 E.03437
;WIDTH:0.715093
G1 X117.486 Y113.799 E.0452
G1 X116.798 Y113.246 E.04934
;WIDTH:0.704954
G1 X116.108 Y112.589 E.05245
G1 X115.541 Y111.96 E.04662
;WIDTH:0.705767
G1 X115.226 Y111.564 E.02789
;WIDTH:0.706723
G1 X114.667 Y110.764 E.05387
G1 X114.221 Y110.01 E.04835
;WIDTH:0.704283
G1 X113.837 Y109.214 E.0486
;WIDTH:0.709529
G1 X113.621 Y108.703 E.03075
G1 X113.305 Y107.791 E.0535
;WIDTH:0.703586
G1 X113.014 Y106.575 E.06869
G1 X112.891 Y105.717 E.04762
;WIDTH:0.714064
G1 X112.847 Y105.143 E.03213
G1 X112.834 Y104.066 E.06011
;WIDTH:0.701943
G1 X112.877 Y103.345 E.03958
;WIDTH:0.707527
G1 X112.939 Y102.833 E.0285
G1 X113.091 Y101.976 E.0481
;WIDTH:0.704186
G1 X113.31 Y101.134 E.04784
;WIDTH:0.70576
G1 X113.487 Y100.586 E.03174
G1 X113.812 Y99.765 E.04867
;WIDTH:0.706582
G1 X114.238 Y98.898 E.05331
G1 X114.683 Y98.143 E.04836
;WIDTH:0.703693
G1 X115.213 Y97.399 E.05019
;WIDTH:0.709368
G1 X115.538 Y96.986 E.02912
G1 X116.091 Y96.364 E.04612
;WIDTH:0.707099
G1 X116.457 Y96.003 E.02839
G1 X117.029 Y95.498 E.04214
;WIDTH:0.698133
G1 X117.838 Y94.884 E.05533
;WIDTH:0.713694
G1 X118.692 Y94.341 E.05644
G1 X119.472 Y93.928 E.04923
;WIDTH:0.707253
G1 X120.36 Y93.549 E.05333
G1 X121.064 Y93.307 E.04112
G1 X121.637 Y93.146 E.03288
G1 X122.156 Y93.032 E.02935
;WIDTH:0.696939
G1 X123.015 Y92.89 E.04735
;WIDTH:0.711176
G1 X123.535 Y92.832 E.02907
;WIDTH:0.711298
G1 X124.315 Y92.794 E.0434
G1 X124.817 Y92.792 E.0279
;WIDTH:0.702037
G1 X125.631 Y92.845 E.04471
;WIDTH:0.70735
G1 X126.235 Y92.919 E.03362
G1 X127.103 Y93.082 E.04879
;WIDTH:0.706868
G1 X128.039 Y93.337 E.05356
G1 X128.774 Y93.601 E.04312
;WIDTH:0.697942
G1 X129.7 Y94.016 E.05527
;WIDTH:0.713996
G1 X130.561 Y94.488 E.05479
G1 X131.3 Y94.97 E.04923
;WIDTH:0.707078
G1 X132.06 Y95.565 E.0533
G1 X132.656 Y96.11 E.0446
;WIDTH:0.713827
G1 X133.088 Y96.557 E.03468
G1 X133.758 Y97.352 E.058
;WIDTH:0.70041
G1 X134.03 Y97.732 E.02555
M204 S1000
G1 X134.618 Y97.454 F10800
M204 S800
;TYPE:External perimeter
;WIDTH:0.649999
G1 F1200
G1 X135.236 Y98.431 E.05836
G1 X135.473 Y98.872 E.02527
G1 X135.861 Y99.709 E.04657
G1 X136.214 Y100.661 E.05125
G1 X136.467 Y101.549 E.04661
G1 X136.576 Y102.038 E.02529
G1 X136.735 Y103.044 E.05141
G1 X136.807 Y103.964 E.04658
G1 X136.817 Y104.488 E.02646
G1 X136.807 Y104.972 E.02444
G1 X136.735 Y105.892 E.04658
G1 X136.576 Y106.898 E.05141
G1 X136.467 Y107.387 E.02529
G1 X136.214 Y108.275 E.04661
G1 X135.861 Y109.227 E.05125
G1 X135.473 Y110.064 E.04657
M73 Q2 S14
G1 X135.236 Y110.505 E.02527
G1 X134.7 Y111.371 E.05141
G1 X134.155 Y112.116 E.0466
G1 X133.836 Y112.502 E.02528
G1 X133.141 Y113.245 E.05136
G1 X132.388 Y113.925 E.05122
G1 X131.733 Y114.436 E.04194
M73 P2 R14
G1 X131.322 Y114.722 E.02528
G1 X130.45 Y115.252 E.05151
G1 X130.006 Y115.485 E.02531
G1 X129.166 Y115.866 E.04656
G1 X128.208 Y116.212 E.05142
G1 X127.727 Y116.353 E.0253
G1 X126.828 Y116.561 E.04658
G1 X125.821 Y116.712 E.0514
G1 X125.322 Y116.755 E.02528
G1 X124.4 Y116.782 E.04656
G1 X123.386 Y116.732 E.05125
G1 X122.47 Y116.614 E.04662
G1 X121.978 Y116.521 E.02528
G1 X120.991 Y116.271 E.0514
G1 X120.117 Y115.976 E.04656
G1 X119.19 Y115.578 E.05092
G1 X118.373 Y115.149 E.04658
G1 X117.511 Y114.606 E.05143
G1 X117.105 Y114.313 E.02527
G1 X116.388 Y113.732 E.04658
G1 X115.653 Y113.031 E.05127
G1 X115.036 Y112.345 E.04657
G1 X114.724 Y111.953 E.02529
G1 X114.139 Y111.12 E.05138
G1 X113.67 Y110.325 E.04659
G1 X113.44 Y109.88 E.02529
G1 X113.032 Y108.948 E.05136
G1 X112.703 Y107.988 E.05123
G1 X112.492 Y107.185 E.04191
G1 X112.391 Y106.694 E.0253
G1 X112.248 Y105.684 E.05149
G1 X112.209 Y105.184 E.02532
G1 X112.19 Y104.262 E.04655
G1 X112.249 Y103.245 E.05142
G1 X112.309 Y102.748 E.02527
G1 X112.472 Y101.84 E.04657
G1 X112.73 Y100.854 E.05145
G1 X112.887 Y100.379 E.02525
G1 X113.225 Y99.52 E.0466
G1 X113.671 Y98.608 E.05125
G1 X114.141 Y97.813 E.04662
G1 X114.42 Y97.398 E.02524
G1 X115.039 Y96.589 E.05142
G1 X115.655 Y95.902 E.04658
G1 X116.013 Y95.547 E.02545
G1 X116.386 Y95.207 E.02548
G1 X117.102 Y94.625 E.04658
G1 X117.941 Y94.047 E.05143
G1 X118.37 Y93.789 E.02527
G1 X119.187 Y93.36 E.04658
G1 X120.12 Y92.959 E.05126
G1 X120.994 Y92.664 E.04656
G1 X121.477 Y92.53 E.0253
G1 X122.473 Y92.322 E.05136
G1 X123.48 Y92.197 E.05122
G1 X124.309 Y92.156 E.0419
G1 X124.81 Y92.157 E.02529
G1 X125.828 Y92.225 E.0515
G1 X126.325 Y92.289 E.0253
G1 X127.232 Y92.46 E.04659
G1 X128.215 Y92.726 E.05141
G1 X128.69 Y92.887 E.02532
G1 X129.545 Y93.233 E.04656
G1 X130.456 Y93.688 E.0514
G1 X130.889 Y93.939 E.02526
G1 X131.66 Y94.447 E.04661
G1 X132.461 Y95.07 E.05122
G1 X133.208 Y95.759 E.0513
G1 X133.555 Y96.121 E.02531
G1 X134.097 Y96.75 E.04191
G1 X134.565 Y97.381 E.03966
M204 S1000
G1 X134.359 Y97.995 F10800
;WIPE_START
G1 F8640
G1 X135.236 Y98.431 E-.28773
G1 X135.473 Y98.872 E-.1156
G1 X135.861 Y99.709 E-.21302
G1 X136.138 Y100.455 E-.18365
;WIPE_END
G1 Z.6 F720
G1 X129.129 Y114.443 F10800
G1 Z.2 F720
G1 E.8 F1500
M204 S800
;TYPE:Perimeter
;WIDTH:0.710553
G1 F1200
G1 X128.661 Y114.662 E.02868
G1 X127.803 Y114.981 E.05082
;WIDTH:0.704372
G1 X126.621 Y115.285 E.06713
;WIDTH:0.701192
G1 X125.702 Y115.425 E.05088
G1 X124.646 Y115.488 E.0579
;WIDTH:0.698447
G1 X123.717 Y115.461 E.05066
;WIDTH:0.713956
G1 X122.164 Y115.237 E.08755
;WIDTH:0.701991
G1 X122.065 Y115.215 E.00556
;WIDTH:0.701723
G1 X121.377 Y115.037 E.03893
;WIDTH:0.705555
G1 X120.563 Y114.757 E.04743
;WIDTH:0.707099
G1 X119.755 Y114.407 E.04863
G1 X119.022 Y114.024 E.04567
;WIDTH:0.705479
G1 X118.582 Y113.763 E.02818
;WIDTH:0.715093
G1 X117.347 Y112.848 E.08591
;WIDTH:0.701151
G1 X116.751 Y112.301 E.04428
;WIDTH:0.701286
G1 X116.037 Y111.527 E.05765
G1 X115.474 Y110.787 E.0509
;WIDTH:0.698674
G1 X114.909 Y109.893 E.05767
;WIDTH:0.707651
G1 X114.392 Y108.847 E.06449
;WIDTH:0.699401
G1 X113.974 Y107.723 E.06546
;WIDTH:0.705149
G1 X113.754 Y106.884 E.04776
G1 X113.558 Y105.764 E.06261
;WIDTH:0.714064
G1 X113.487 Y104.266 E.08369
;WIDTH:0.705232
G1 X113.535 Y103.386 E.04853
;WIDTH:0.701943
G1 X113.688 Y102.345 E.05766
;WIDTH:0.700207
G1 X113.944 Y101.309 E.05832
;WIDTH:0.70576
G1 X114.109 Y100.817 E.0286
G1 X114.412 Y100.046 E.04566
;WIDTH:0.705472
G1 X114.621 Y99.59 E.02763
;WIDTH:0.698932
G1 X115.133 Y98.664 E.05772
;WIDTH:0.707657
G1 X115.801 Y97.708 E.06446
;WIDTH:0.702154
G1 X116.585 Y96.801 E.06572
;WIDTH:0.705115
G1 X117.242 Y96.181 E.04974
G1 X117.884 Y95.66 E.04553
;WIDTH:0.713992
G1 X118.642 Y95.154 E.05085
G1 X119.445 Y94.679 E.05206
;WIDTH:0.699272
G1 X120.179 Y94.333 E.04429
;WIDTH:0.698728
G1 X121.164 Y93.965 E.05734
;WIDTH:0.707253
G1 X122.277 Y93.675 E.06353
;WIDTH:0.696939
G1 X123.11 Y93.536 E.04593
;WIDTH:0.711298
G1 X124.348 Y93.462 E.06893
G1 X125.486 Y93.492 E.06327
;WIDTH:0.70735
G1 X126.127 Y93.574 E.0357
G1 X126.94 Y93.724 E.04567
;WIDTH:0.705248
G1 X127.435 Y93.845 E.02806
;WIDTH:0.705536
G1 X128.249 Y94.107 E.04711
G1 X129.015 Y94.417 E.04553
;WIDTH:0.713699
G1 X129.825 Y94.836 E.05086
G1 X130.654 Y95.326 E.05371
;WIDTH:0.699323
G1 X131.31 Y95.803 E.04427
;WIDTH:0.697634
G1 X132.106 Y96.491 E.05728
;WIDTH:0.713827
G1 X133.095 Y97.575 E.08186
;WIDTH:0.705967
G1 X133.635 Y98.299 E.0498
;WIDTH:0.704925
G1 X134.116 Y99.084 E.05068
;WIDTH:0.713325
G1 X134.655 Y100.221 E.07014
G1 X134.861 Y100.707 E.02943
;WIDTH:0.698405
G1 X135.093 Y101.421 E.04092
;WIDTH:0.704981
G1 X135.304 Y102.294 E.04944
;WIDTH:0.706351
G1 X135.445 Y103.201 E.05064
G1 X135.51 Y104.026 E.04565
;WIDTH:0.705853
G1 X135.51 Y104.91 E.04873
G1 X135.481 Y105.433 E.02887
;WIDTH:0.698336
G1 X135.353 Y106.4 E.05316
;WIDTH:0.707468
G1 X135.204 Y107.073 E.03809
;WIDTH:0.709238
G1 X134.977 Y107.863 E.04554
G1 X134.692 Y108.668 E.04731
;WIDTH:0.704983
G1 X134.309 Y109.49 E.04992
G1 X133.764 Y110.442 E.06039
;WIDTH:0.713711
M73 P2 R13
G1 X133.119 Y111.314 E.0605
G1 X132.757 Y111.77 E.03247
;WIDTH:0.701073
G1 X132.267 Y112.29 E.0391
;WIDTH:0.702881
G1 X131.548 Y112.941 E.05323
;WIDTH:0.7068
G1 X130.963 Y113.389 E.04067
G1 X129.837 Y114.114 E.07393
;WIDTH:0.710553
G1 X129.211 Y114.405 E.03832
M204 S1000
G1 X128.848 Y113.875 F10800
M204 S800
;TYPE:External perimeter
;WIDTH:0.649999
G1 F1200
G1 X128.397 Y114.082 E.02505
G1 X127.602 Y114.38 E.04286
G1 X126.472 Y114.67 E.05889
G1 X125.61 Y114.799 E.044
G1 X124.61 Y114.858 E.05057
G1 X123.738 Y114.83 E.04404
G1 X122.257 Y114.611 E.07557
G1 X121.538 Y114.424 E.0375
G1 X120.773 Y114.157 E.0409
G1 X120.024 Y113.831 E.04123
G1 X119.34 Y113.475 E.03892
G1 X118.898 Y113.216 E.02586
G1 X117.726 Y112.341 E.07383
G1 X117.18 Y111.838 E.03747
G1 X116.504 Y111.1 E.05052
G1 X115.977 Y110.406 E.04399
G1 X115.444 Y109.558 E.05056
G1 X115.183 Y109.033 E.0296
G1 X114.846 Y108.258 E.04266
G1 X114.566 Y107.503 E.04065
G1 X114.369 Y106.729 E.04032
G1 X114.182 Y105.666 E.05448
G1 X114.118 Y104.17 E.07559
G1 X114.166 Y103.429 E.03748
G1 X114.313 Y102.438 E.05057
G1 X114.557 Y101.464 E.05069
G1 X114.843 Y100.641 E.04398
G1 X115.197 Y99.847 E.04388
G1 X115.685 Y98.973 E.05053
G1 X116.001 Y98.516 E.02805
M73 Q3 S14
G1 X116.519 Y97.844 E.04283
G1 X117.064 Y97.215 E.04201
G1 X117.673 Y96.646 E.04207
G1 X118.272 Y96.163 E.03884
G1 X118.972 Y95.701 E.04234
G1 X119.771 Y95.22 E.04708
G1 X120.444 Y94.905 E.03751
M73 P3 R13
G1 X121.383 Y94.557 E.05055
G1 X121.949 Y94.408 E.02954
G1 X122.791 Y94.228 E.04346
G1 X123.612 Y94.136 E.0417
G1 X124.71 Y94.082 E.05549
G1 X125.451 Y94.122 E.03746
G1 X126.039 Y94.204 E.02997
G1 X126.794 Y94.342 E.03874
G1 X127.291 Y94.459 E.02577
G1 X128.049 Y94.71 E.04031
G1 X128.761 Y94.999 E.03879
G1 X129.504 Y95.388 E.04234
G1 X130.337 Y95.872 E.04863
G1 X130.936 Y96.311 E.03749
G1 X131.692 Y96.967 E.05053
G1 X132.696 Y98.081 E.0757
G1 X133.121 Y98.669 E.03662
M73 Q3 S13
G1 X133.573 Y99.412 E.0439
G1 X134.072 Y100.481 E.05955
G1 X134.274 Y100.939 E.02527
G1 X134.492 Y101.615 E.03585
G1 X134.686 Y102.439 E.04273
G1 X134.815 Y103.284 E.04315
G1 X134.876 Y104.053 E.03894
G1 X134.876 Y104.883 E.0419
G1 X134.815 Y105.652 E.03894
G1 X134.727 Y106.317 E.03386
G1 X134.585 Y106.928 E.03166
G1 X134.376 Y107.654 E.03814
G1 X134.095 Y108.459 E.04304
G1 X133.736 Y109.218 E.04238
G1 X133.221 Y110.121 E.05247
G1 X132.296 Y111.338 E.07716
G1 X131.807 Y111.855 E.03592
G1 X131.124 Y112.47 E.04639
G1 X130.232 Y113.136 E.05619
G1 X129.51 Y113.572 E.04258
G1 X128.93 Y113.838 E.03221
M204 S1000
G1 X128.812 Y114.37 F10800
; stop printing object cap_v3-Body id:0 copy 0
M106 S84.15
;LAYER_CHANGE
;Z:0.55
;HEIGHT:0.35
;BEFORE_LAYER_CHANGE
G92 E0.0
;0.55


;WIPE_START
G1 F8640
G1 X128.397 Y114.082 E-.13535
G1 X127.602 Y114.38 E-.19604
G1 X126.472 Y114.67 E-.26938
G1 X125.619 Y114.798 E-.19923
;WIPE_END
G1 Z.6 F720
;AFTER_LAYER_CHANGE
;0.55
M104 S210 ; set temperature
G1 X126.187 Y120.165 F10800
G1 Z.55 F720
G1 E.8 F1500
;TYPE:Skirt/Brim
;WIDTH:0.65
G1 F3000
G1 X125.369 Y120.252 E.06881
G1 X123.768 Y120.258 E.13393
G1 X122.174 Y120.103 E.13397
